(G-CODE GENERATED BY FLATCAM v8.96 - www.flatcam.org - Version Date: 2019/08/23)

(Name: back)
(Type: G-code from Geometry)
(Units: MM)

(Created on Tuesday, 19 November 2019 at 13:44)

(TOOL DIAMETER: 0.18 mm)

(Feedrate: 79.9998 mm/min)
(Feedrate_Z: 79.9998 mm/min)
(Feedrate rapids 79.9998 mm/min)

(Z_Cut: -0.1493 mm)
(Z_Move: 1.999 mm)
(Z Toolchange: 12.7 mm)
(X,Y Toolchange: 0.0000, 0.0000 mm)
(Z Start: None mm)
(Z End: 12.7 mm)
(Steps per circle: 128)
(Postprocessor Geometry: grbl_11)

(X range:  -64.0500 ...   -0.2740  mm)
(Y range:   10.3530 ...   54.0680  mm)

(Spindle Speed: 800 RPM)


G21
G90
G94
G17

G01 F80.00
G00 Z1.9990

M03 S800
G00 X-13.3537 Y11.4240
G01 F80.00
G01 Z-0.1493
G01 F80.00
G01 X-13.3497 Y11.3690 F80.00
G01 X-13.3430 Y11.3141 F80.00
G01 X-13.3334 Y11.2585 F80.00
G01 X-13.3216 Y11.2058 F80.00
G01 X-13.3069 Y11.1526 F80.00
G01 X-13.2896 Y11.1002 F80.00
G01 X-13.2696 Y11.0480 F80.00
G01 X-13.2465 Y10.9960 F80.00
G01 X-13.2216 Y10.9466 F80.00
G01 X-13.1943 Y10.8986 F80.00
G01 X-13.1647 Y10.8520 F80.00
G01 X-13.1334 Y10.8076 F80.00
G01 X-13.0988 Y10.7634 F80.00
G01 X-13.0627 Y10.7216 F80.00
G01 X-13.0255 Y10.6825 F80.00
G01 X-12.9846 Y10.6436 F80.00
G01 X-12.9444 Y10.6090 F80.00
G01 X-12.9004 Y10.5746 F80.00
G01 X-12.8560 Y10.5433 F80.00
G01 X-12.8092 Y10.5136 F80.00
G01 X-12.7614 Y10.4864 F80.00
G01 X-12.7120 Y10.4615 F80.00
G01 X-12.6600 Y10.4384 F80.00
G01 X-12.6078 Y10.4184 F80.00
G01 X-12.5554 Y10.4011 F80.00
G01 X-12.5022 Y10.3864 F80.00
G01 X-12.4495 Y10.3746 F80.00
G01 X-12.3963 Y10.3654 F80.00
G01 X-12.3415 Y10.3586 F80.00
G01 X-12.2864 Y10.3544 F80.00
G01 X-12.2300 Y10.3530 F80.00
G01 X-12.1760 Y10.3543 F80.00
G01 X-12.1210 Y10.3583 F80.00
G01 X-12.0661 Y10.3650 F80.00
G01 X-12.0105 Y10.3746 F80.00
G01 X-11.9555 Y10.3870 F80.00
G01 X-11.9023 Y10.4018 F80.00
G01 X-11.8498 Y10.4192 F80.00
G01 X-11.8000 Y10.4384 F80.00
G01 X-11.7480 Y10.4615 F80.00
G01 X-11.6986 Y10.4864 F80.00
G01 X-11.6506 Y10.5137 F80.00
G01 X-11.6040 Y10.5433 F80.00
G01 X-11.5596 Y10.5746 F80.00
G01 X-11.5154 Y10.6092 F80.00
G01 X-11.4736 Y10.6453 F80.00
G01 X-11.4345 Y10.6825 F80.00
G01 X-11.3956 Y10.7234 F80.00
G01 X-11.3596 Y10.7653 F80.00
G01 X-11.3266 Y10.8076 F80.00
G01 X-11.2939 Y10.8540 F80.00
G01 X-11.2656 Y10.8988 F80.00
G01 X-11.2373 Y10.9488 F80.00
G01 X-11.2135 Y10.9960 F80.00
G01 X-11.1904 Y11.0480 F80.00
G01 X-11.1704 Y11.1002 F80.00
G01 X-11.1531 Y11.1526 F80.00
G01 X-11.1384 Y11.2058 F80.00
G01 X-11.1266 Y11.2585 F80.00
G01 X-11.1174 Y11.3117 F80.00
G01 X-11.1105 Y11.3668 F80.00
G01 X-11.1064 Y11.4216 F80.00
G01 X-11.1050 Y11.4768 F80.00
G01 X-11.1050 Y11.6526 F80.00
G01 X-4.0870 Y11.6526 F80.00
G01 X-4.0436 Y11.6066 F80.00
G01 X-4.0036 Y11.5686 F80.00
G01 X-3.9617 Y11.5326 F80.00
G01 X-3.9194 Y11.4996 F80.00
G01 X-3.8730 Y11.4669 F80.00
G01 X-3.8282 Y11.4386 F80.00
G01 X-3.7804 Y11.4114 F80.00
G01 X-3.7289 Y11.3855 F80.00
G01 X-3.6790 Y11.3634 F80.00
G01 X-3.6268 Y11.3434 F80.00
G01 X-3.5744 Y11.3261 F80.00
G01 X-3.5212 Y11.3114 F80.00
G01 X-3.4685 Y11.2996 F80.00
G01 X-3.4129 Y11.2900 F80.00
G01 X-3.3602 Y11.2835 F80.00
G01 X-3.3054 Y11.2794 F80.00
G01 X-3.2490 Y11.2780 F80.00
G01 X-1.3990 Y11.2780 F80.00
G01 X-1.3450 Y11.2793 F80.00
G01 X-1.2900 Y11.2833 F80.00
G01 X-1.2351 Y11.2900 F80.00
G01 X-1.1795 Y11.2996 F80.00
G01 X-1.1268 Y11.3114 F80.00
G01 X-1.0736 Y11.3261 F80.00
G01 X-1.0212 Y11.3434 F80.00
G01 X-0.9690 Y11.3634 F80.00
G01 X-0.9170 Y11.3865 F80.00
G01 X-0.8698 Y11.4103 F80.00
G01 X-0.8217 Y11.4374 F80.00
G01 X-0.7750 Y11.4669 F80.00
G01 X-0.7286 Y11.4996 F80.00
G01 X-0.6863 Y11.5326 F80.00
G01 X-0.6444 Y11.5686 F80.00
G01 X-0.6035 Y11.6075 F80.00
G01 X-0.5663 Y11.6466 F80.00
G01 X-0.5300 Y11.6886 F80.00
G01 X-0.4956 Y11.7326 F80.00
G01 X-0.4643 Y11.7770 F80.00
G01 X-0.4346 Y11.8238 F80.00
G01 X-0.4074 Y11.8716 F80.00
G01 X-0.3825 Y11.9210 F80.00
G01 X-0.3594 Y11.9730 F80.00
G01 X-0.3402 Y12.0228 F80.00
G01 X-0.3228 Y12.0753 F80.00
G01 X-0.3080 Y12.1285 F80.00
G01 X-0.2956 Y12.1835 F80.00
G01 X-0.2864 Y12.2367 F80.00
G01 X-0.2795 Y12.2918 F80.00
G01 X-0.2754 Y12.3466 F80.00
G01 X-0.2740 Y12.4030 F80.00
G01 X-0.2753 Y12.4570 F80.00
G01 X-0.2793 Y12.5120 F80.00
G01 X-0.2864 Y12.5693 F80.00
G01 X-0.2956 Y12.6225 F80.00
G01 X-0.3080 Y12.6775 F80.00
G01 X-0.3228 Y12.7307 F80.00
G01 X-0.3402 Y12.7832 F80.00
G01 X-0.3594 Y12.8330 F80.00
G01 X-0.3825 Y12.8850 F80.00
G01 X-0.4063 Y12.9322 F80.00
G01 X-0.4334 Y12.9803 F80.00
G01 X-0.4629 Y13.0270 F80.00
G01 X-0.4947 Y13.0722 F80.00
G01 X-0.5302 Y13.1176 F80.00
G01 X-0.5663 Y13.1594 F80.00
G01 X-0.6044 Y13.1994 F80.00
G01 X-0.6444 Y13.2374 F80.00
G01 X-0.6846 Y13.2720 F80.00
G01 X-0.7286 Y13.3064 F80.00
G01 X-0.7730 Y13.3377 F80.00
G01 X-0.8217 Y13.3686 F80.00
G01 X-0.8698 Y13.3957 F80.00
G01 X-0.9191 Y13.4205 F80.00
G01 X-0.9690 Y13.4426 F80.00
G01 X-1.0212 Y13.4626 F80.00
G01 X-1.0736 Y13.4799 F80.00
G01 X-1.1268 Y13.4946 F80.00
G01 X-1.1795 Y13.5064 F80.00
G01 X-1.2351 Y13.5160 F80.00
G01 X-1.2878 Y13.5225 F80.00
G01 X-1.3426 Y13.5266 F80.00
G01 X-1.3990 Y13.5280 F80.00
G01 X-3.2490 Y13.5280 F80.00
G01 X-3.3054 Y13.5266 F80.00
G01 X-3.3605 Y13.5224 F80.00
G01 X-3.4129 Y13.5160 F80.00
G01 X-3.4685 Y13.5064 F80.00
G01 X-3.5212 Y13.4946 F80.00
G01 X-3.5744 Y13.4799 F80.00
G01 X-3.6268 Y13.4626 F80.00
G01 X-3.6790 Y13.4426 F80.00
G01 X-3.7289 Y13.4205 F80.00
G01 X-3.7804 Y13.3946 F80.00
G01 X-3.8284 Y13.3673 F80.00
G01 X-3.8750 Y13.3377 F80.00
G01 X-3.9194 Y13.3064 F80.00
G01 X-3.9617 Y13.2734 F80.00
G01 X-4.0036 Y13.2374 F80.00
G01 X-4.0436 Y13.1994 F80.00
G01 X-4.0870 Y13.1534 F80.00
G01 X-11.1050 Y13.1534 F80.00
G01 X-11.1050 Y13.3292 F80.00
G01 X-11.1064 Y13.3844 F80.00
G01 X-11.1106 Y13.4395 F80.00
G01 X-11.1174 Y13.4943 F80.00
G01 X-11.1266 Y13.5475 F80.00
G01 X-11.1384 Y13.6002 F80.00
G01 X-11.1531 Y13.6534 F80.00
G01 X-11.1704 Y13.7058 F80.00
G01 X-11.1904 Y13.7580 F80.00
G01 X-11.2135 Y13.8100 F80.00
G01 X-11.2384 Y13.8594 F80.00
G01 X-11.2657 Y13.9074 F80.00
G01 X-11.2953 Y13.9540 F80.00
G01 X-11.3266 Y13.9984 F80.00
G01 X-11.3596 Y14.0407 F80.00
G01 X-11.3956 Y14.0826 F80.00
G01 X-11.4336 Y14.1226 F80.00
G01 X-11.4736 Y14.1607 F80.00
G01 X-11.5156 Y14.1970 F80.00
G01 X-11.5596 Y14.2314 F80.00
G01 X-11.6060 Y14.2641 F80.00
G01 X-11.6508 Y14.2924 F80.00
G01 X-11.7008 Y14.3207 F80.00
G01 X-11.7501 Y14.3455 F80.00
G01 X-11.8000 Y14.3676 F80.00
G01 X-11.8498 Y14.3868 F80.00
G01 X-11.9023 Y14.4042 F80.00
G01 X-11.9578 Y14.4196 F80.00
G01 X-12.0105 Y14.4314 F80.00
G01 X-12.0661 Y14.4410 F80.00
G01 X-12.1188 Y14.4475 F80.00
G01 X-12.1760 Y14.4517 F80.00
G01 X-12.2312 Y14.4530 F80.00
G01 X-12.2864 Y14.4516 F80.00
G01 X-12.3390 Y14.4477 F80.00
G01 X-12.3963 Y14.4406 F80.00
G01 X-12.4495 Y14.4314 F80.00
G01 X-12.5022 Y14.4196 F80.00
G01 X-12.5577 Y14.4042 F80.00
G01 X-12.6102 Y14.3868 F80.00
G01 X-12.6600 Y14.3676 F80.00
G01 X-12.7121 Y14.3444 F80.00
G01 X-12.7614 Y14.3196 F80.00
G01 X-12.8073 Y14.2936 F80.00
G01 X-12.8560 Y14.2627 F80.00
G01 X-12.9004 Y14.2314 F80.00
G01 X-12.9427 Y14.1984 F80.00
G01 X-12.9864 Y14.1607 F80.00
G01 X-13.0255 Y14.1235 F80.00
G01 X-13.0627 Y14.0844 F80.00
G01 X-13.1004 Y14.0407 F80.00
G01 X-13.1334 Y13.9984 F80.00
G01 X-13.1647 Y13.9540 F80.00
G01 X-13.1944 Y13.9072 F80.00
G01 X-13.2227 Y13.8572 F80.00
G01 X-13.2465 Y13.8100 F80.00
G01 X-13.2689 Y13.7596 F80.00
G01 X-13.2896 Y13.7058 F80.00
G01 X-13.3069 Y13.6534 F80.00
G01 X-13.3210 Y13.6025 F80.00
G01 X-13.3334 Y13.5475 F80.00
G01 X-13.3426 Y13.4943 F80.00
G01 X-13.3494 Y13.4395 F80.00
G01 X-13.3537 Y13.3820 F80.00
G01 X-13.3550 Y13.3280 F80.00
G01 X-13.3550 Y11.4780 F80.00
G01 X-13.3537 Y11.4240 F80.00
G00 Z1.9990
G00 X-13.8817 Y26.1560
G01 F80.00
G01 Z-0.1493
G01 F80.00
G01 X-13.8777 Y26.1010 F80.00
G01 X-13.8710 Y26.0461 F80.00
G01 X-13.8614 Y25.9905 F80.00
G01 X-13.8496 Y25.9378 F80.00
G01 X-13.8349 Y25.8846 F80.00
G01 X-13.8176 Y25.8322 F80.00
G01 X-13.7976 Y25.7800 F80.00
G01 X-13.7745 Y25.7280 F80.00
G01 X-13.7496 Y25.6786 F80.00
G01 X-13.7223 Y25.6306 F80.00
G01 X-13.6927 Y25.5840 F80.00
G01 X-13.6614 Y25.5396 F80.00
G01 X-13.6268 Y25.4954 F80.00
G01 X-13.5907 Y25.4536 F80.00
G01 X-13.5535 Y25.4145 F80.00
G01 X-13.5126 Y25.3756 F80.00
G01 X-13.4724 Y25.3410 F80.00
G01 X-13.4284 Y25.3066 F80.00
G01 X-13.3840 Y25.2753 F80.00
G01 X-13.3372 Y25.2456 F80.00
G01 X-13.2894 Y25.2184 F80.00
G01 X-13.2400 Y25.1935 F80.00
G01 X-13.1880 Y25.1704 F80.00
G01 X-13.1358 Y25.1504 F80.00
G01 X-13.0834 Y25.1331 F80.00
G01 X-13.0302 Y25.1184 F80.00
G01 X-12.9775 Y25.1066 F80.00
G01 X-12.9243 Y25.0974 F80.00
G01 X-12.8695 Y25.0906 F80.00
G01 X-12.8144 Y25.0864 F80.00
G01 X-12.7580 Y25.0850 F80.00
G01 X-12.7040 Y25.0863 F80.00
G01 X-12.6490 Y25.0903 F80.00
G01 X-12.5941 Y25.0970 F80.00
G01 X-12.5385 Y25.1066 F80.00
G01 X-12.4835 Y25.1190 F80.00
G01 X-12.4303 Y25.1338 F80.00
G01 X-12.3778 Y25.1512 F80.00
G01 X-12.3280 Y25.1704 F80.00
G01 X-12.2760 Y25.1935 F80.00
G01 X-12.2266 Y25.2184 F80.00
G01 X-12.1786 Y25.2457 F80.00
G01 X-12.1320 Y25.2753 F80.00
G01 X-12.0876 Y25.3066 F80.00
G01 X-12.0434 Y25.3412 F80.00
G01 X-12.0016 Y25.3773 F80.00
G01 X-11.9625 Y25.4145 F80.00
G01 X-11.9236 Y25.4554 F80.00
G01 X-11.8876 Y25.4973 F80.00
G01 X-11.8546 Y25.5396 F80.00
G01 X-11.8219 Y25.5860 F80.00
G01 X-11.7936 Y25.6308 F80.00
G01 X-11.7653 Y25.6808 F80.00
G01 X-11.7415 Y25.7280 F80.00
G01 X-11.7184 Y25.7800 F80.00
G01 X-11.6984 Y25.8322 F80.00
G01 X-11.6811 Y25.8846 F80.00
G01 X-11.6664 Y25.9378 F80.00
G01 X-11.6546 Y25.9905 F80.00
G01 X-11.6454 Y26.0437 F80.00
G01 X-11.6385 Y26.0988 F80.00
G01 X-11.6344 Y26.1536 F80.00
G01 X-11.6330 Y26.2088 F80.00
G01 X-11.6330 Y26.3846 F80.00
G01 X-10.2830 Y26.3846 F80.00
G01 X-10.2450 Y26.3856 F80.00
G01 X-10.2082 Y26.3884 F80.00
G01 X-10.1717 Y26.3930 F80.00
G01 X-10.1378 Y26.3988 F80.00
G01 X-10.0995 Y26.4074 F80.00
G01 X-10.0640 Y26.4173 F80.00
G01 X-10.0291 Y26.4289 F80.00
G01 X-9.9970 Y26.4413 F80.00
G01 X-9.9633 Y26.4562 F80.00
G01 X-9.9282 Y26.4738 F80.00
G01 X-9.8962 Y26.4920 F80.00
G01 X-9.8651 Y26.5118 F80.00
G01 X-9.8358 Y26.5325 F80.00
G01 X-9.8079 Y26.5542 F80.00
G01 X-9.7800 Y26.5782 F80.00
G01 X-9.7524 Y26.6044 F80.00
G01 X-4.5874 Y31.7694 F80.00
G01 X-4.5612 Y31.7970 F80.00
G01 X-4.5386 Y31.8233 F80.00
G01 X-4.5155 Y31.8528 F80.00
G01 X-4.4948 Y31.8821 F80.00
G01 X-4.4750 Y31.9132 F80.00
G01 X-4.4557 Y31.9474 F80.00
G01 X-4.4402 Y31.9782 F80.00
G01 X-4.4253 Y32.0117 F80.00
G01 X-4.4119 Y32.0461 F80.00
G01 X-4.4003 Y32.0810 F80.00
G01 X-4.3899 Y32.1189 F80.00
G01 X-4.3818 Y32.1548 F80.00
G01 X-4.3756 Y32.1911 F80.00
G01 X-4.3714 Y32.2252 F80.00
G01 X-4.3686 Y32.2620 F80.00
G01 X-4.3676 Y32.3000 F80.00
G01 X-4.3676 Y39.9770 F80.00
G01 X-4.3216 Y40.0204 F80.00
G01 X-4.2836 Y40.0604 F80.00
G01 X-4.2476 Y40.1023 F80.00
G01 X-4.2146 Y40.1446 F80.00
G01 X-4.1819 Y40.1910 F80.00
G01 X-4.1536 Y40.2358 F80.00
G01 X-4.1264 Y40.2836 F80.00
G01 X-4.1005 Y40.3351 F80.00
G01 X-4.0784 Y40.3850 F80.00
G01 X-4.0584 Y40.4372 F80.00
G01 X-4.0411 Y40.4896 F80.00
G01 X-4.0264 Y40.5428 F80.00
G01 X-4.0146 Y40.5955 F80.00
G01 X-4.0050 Y40.6511 F80.00
G01 X-3.9985 Y40.7038 F80.00
G01 X-3.9944 Y40.7586 F80.00
G01 X-3.9930 Y40.8150 F80.00
G01 X-3.9930 Y42.6650 F80.00
G01 X-3.9944 Y42.7214 F80.00
G01 X-3.9986 Y42.7765 F80.00
G01 X-4.0050 Y42.8289 F80.00
G01 X-4.0149 Y42.8857 F80.00
G01 X-4.0270 Y42.9395 F80.00
G01 X-4.0411 Y42.9904 F80.00
G01 X-4.0592 Y43.0452 F80.00
G01 X-4.0791 Y43.0966 F80.00
G01 X-4.1015 Y43.1470 F80.00
G01 X-4.1253 Y43.1942 F80.00
G01 X-4.1537 Y43.2444 F80.00
G01 X-4.1833 Y43.2910 F80.00
G01 X-4.2137 Y43.3342 F80.00
G01 X-4.2492 Y43.3796 F80.00
G01 X-4.2853 Y43.4214 F80.00
G01 X-4.3225 Y43.4605 F80.00
G01 X-4.3616 Y43.4977 F80.00
G01 X-4.4053 Y43.5354 F80.00
G01 X-4.4476 Y43.5684 F80.00
G01 X-4.4920 Y43.5997 F80.00
G01 X-4.5388 Y43.6294 F80.00
G01 X-4.5888 Y43.6577 F80.00
G01 X-4.6381 Y43.6825 F80.00
G01 X-4.6880 Y43.7046 F80.00
G01 X-4.7378 Y43.7238 F80.00
G01 X-4.7903 Y43.7412 F80.00
G01 X-4.8458 Y43.7566 F80.00
G01 X-4.8985 Y43.7684 F80.00
G01 X-4.9517 Y43.7776 F80.00
G01 X-5.0065 Y43.7844 F80.00
G01 X-5.0616 Y43.7886 F80.00
G01 X-5.1180 Y43.7900 F80.00
G01 X-5.1744 Y43.7886 F80.00
G01 X-5.2295 Y43.7844 F80.00
G01 X-5.2819 Y43.7780 F80.00
G01 X-5.3375 Y43.7684 F80.00
G01 X-5.3925 Y43.7560 F80.00
G01 X-5.4457 Y43.7412 F80.00
G01 X-5.4958 Y43.7246 F80.00
G01 X-5.5474 Y43.7048 F80.00
G01 X-5.6000 Y43.6815 F80.00
G01 X-5.6494 Y43.6566 F80.00
G01 X-5.6974 Y43.6293 F80.00
G01 X-5.7440 Y43.5997 F80.00
G01 X-5.7872 Y43.5693 F80.00
G01 X-5.8326 Y43.5338 F80.00
G01 X-5.8744 Y43.4977 F80.00
G01 X-5.9135 Y43.4605 F80.00
G01 X-5.9507 Y43.4214 F80.00
G01 X-5.9868 Y43.3796 F80.00
G01 X-6.0214 Y43.3354 F80.00
G01 X-6.0541 Y43.2890 F80.00
G01 X-6.0836 Y43.2423 F80.00
G01 X-6.1107 Y43.1942 F80.00
G01 X-6.1344 Y43.1471 F80.00
G01 X-6.1576 Y43.0950 F80.00
G01 X-6.1776 Y43.0428 F80.00
G01 X-6.1949 Y42.9904 F80.00
G01 X-6.2090 Y42.9395 F80.00
G01 X-6.2211 Y42.8857 F80.00
G01 X-6.2306 Y42.8313 F80.00
G01 X-6.2375 Y42.7762 F80.00
G01 X-6.2416 Y42.7214 F80.00
G01 X-6.2430 Y42.6650 F80.00
G01 X-6.2430 Y40.8150 F80.00
G01 X-6.2416 Y40.7586 F80.00
G01 X-6.2374 Y40.7035 F80.00
G01 X-6.2310 Y40.6511 F80.00
G01 X-6.2214 Y40.5955 F80.00
G01 X-6.2096 Y40.5428 F80.00
G01 X-6.1949 Y40.4896 F80.00
G01 X-6.1776 Y40.4372 F80.00
G01 X-6.1576 Y40.3850 F80.00
G01 X-6.1355 Y40.3351 F80.00
G01 X-6.1096 Y40.2836 F80.00
G01 X-6.0823 Y40.2356 F80.00
G01 X-6.0527 Y40.1890 F80.00
G01 X-6.0214 Y40.1446 F80.00
G01 X-5.9884 Y40.1023 F80.00
G01 X-5.9524 Y40.0604 F80.00
G01 X-5.9144 Y40.0204 F80.00
G01 X-5.8684 Y39.9770 F80.00
G01 X-5.8684 Y32.6108 F80.00
G01 X-10.5938 Y27.8854 F80.00
G01 X-11.6330 Y27.8854 F80.00
G01 X-11.6330 Y28.0600 F80.00
G01 X-11.6344 Y28.1164 F80.00
G01 X-11.6386 Y28.1715 F80.00
G01 X-11.6450 Y28.2239 F80.00
G01 X-11.6549 Y28.2807 F80.00
G01 X-11.6670 Y28.3345 F80.00
G01 X-11.6818 Y28.3877 F80.00
G01 X-11.6992 Y28.4402 F80.00
G01 X-11.7182 Y28.4894 F80.00
G01 X-11.7415 Y28.5420 F80.00
G01 X-11.7653 Y28.5892 F80.00
G01 X-11.7937 Y28.6394 F80.00
G01 X-11.8233 Y28.6860 F80.00
G01 X-11.8546 Y28.7304 F80.00
G01 X-11.8876 Y28.7727 F80.00
G01 X-11.9236 Y28.8146 F80.00
G01 X-11.9634 Y28.8564 F80.00
G01 X-12.0034 Y28.8944 F80.00
G01 X-12.0436 Y28.9290 F80.00
G01 X-12.0876 Y28.9634 F80.00
G01 X-12.1320 Y28.9947 F80.00
G01 X-12.1807 Y29.0256 F80.00
G01 X-12.2288 Y29.0527 F80.00
G01 X-12.2760 Y29.0765 F80.00
G01 X-12.3280 Y29.0996 F80.00
G01 X-12.3778 Y29.1188 F80.00
G01 X-12.4303 Y29.1362 F80.00
G01 X-12.4858 Y29.1516 F80.00
G01 X-12.5385 Y29.1634 F80.00
G01 X-12.5917 Y29.1726 F80.00
G01 X-12.6468 Y29.1795 F80.00
G01 X-12.7040 Y29.1837 F80.00
G01 X-12.7580 Y29.1850 F80.00
G01 X-12.8120 Y29.1837 F80.00
G01 X-12.8670 Y29.1797 F80.00
G01 X-12.9243 Y29.1726 F80.00
G01 X-12.9775 Y29.1634 F80.00
G01 X-13.0302 Y29.1516 F80.00
G01 X-13.0857 Y29.1362 F80.00
G01 X-13.1382 Y29.1188 F80.00
G01 X-13.1880 Y29.0996 F80.00
G01 X-13.2379 Y29.0775 F80.00
G01 X-13.2894 Y29.0516 F80.00
G01 X-13.3374 Y29.0243 F80.00
G01 X-13.3840 Y28.9947 F80.00
G01 X-13.4284 Y28.9634 F80.00
G01 X-13.4707 Y28.9304 F80.00
G01 X-13.5144 Y28.8927 F80.00
G01 X-13.5535 Y28.8555 F80.00
G01 X-13.5924 Y28.8146 F80.00
G01 X-13.6270 Y28.7744 F80.00
G01 X-13.6614 Y28.7304 F80.00
G01 X-13.6941 Y28.6840 F80.00
G01 X-13.7236 Y28.6373 F80.00
G01 X-13.7507 Y28.5892 F80.00
G01 X-13.7745 Y28.5420 F80.00
G01 X-13.7976 Y28.4900 F80.00
G01 X-13.8176 Y28.4378 F80.00
G01 X-13.8349 Y28.3854 F80.00
G01 X-13.8496 Y28.3322 F80.00
G01 X-13.8614 Y28.2795 F80.00
G01 X-13.8710 Y28.2239 F80.00
G01 X-13.8775 Y28.1712 F80.00
G01 X-13.8816 Y28.1164 F80.00
G01 X-13.8830 Y28.0600 F80.00
G01 X-13.8830 Y26.2100 F80.00
G01 X-13.8817 Y26.1560 F80.00
G00 Z1.9990
G00 X-16.4017 Y26.1560
G01 F80.00
G01 Z-0.1493
G01 F80.00
G01 X-16.3974 Y26.0985 F80.00
G01 X-16.3906 Y26.0437 F80.00
G01 X-16.3811 Y25.9893 F80.00
G01 X-16.3690 Y25.9355 F80.00
G01 X-16.3542 Y25.8823 F80.00
G01 X-16.3368 Y25.8298 F80.00
G01 X-16.3169 Y25.7784 F80.00
G01 X-16.2945 Y25.7280 F80.00
G01 X-16.2696 Y25.6786 F80.00
G01 X-16.2423 Y25.6306 F80.00
G01 X-16.2127 Y25.5840 F80.00
G01 X-16.1814 Y25.5396 F80.00
G01 X-16.1468 Y25.4954 F80.00
G01 X-16.1107 Y25.4536 F80.00
G01 X-16.0735 Y25.4145 F80.00
G01 X-16.0344 Y25.3773 F80.00
G01 X-15.9924 Y25.3410 F80.00
G01 X-15.9484 Y25.3066 F80.00
G01 X-15.9040 Y25.2753 F80.00
G01 X-15.8553 Y25.2444 F80.00
G01 X-15.8072 Y25.2173 F80.00
G01 X-15.7579 Y25.1925 F80.00
G01 X-15.7080 Y25.1704 F80.00
G01 X-15.6558 Y25.1504 F80.00
G01 X-15.6034 Y25.1331 F80.00
G01 X-15.5502 Y25.1184 F80.00
G01 X-15.4975 Y25.1066 F80.00
G01 X-15.4419 Y25.0970 F80.00
G01 X-15.3892 Y25.0905 F80.00
G01 X-15.3344 Y25.0864 F80.00
G01 X-15.2780 Y25.0850 F80.00
G01 X-15.2240 Y25.0863 F80.00
G01 X-15.1690 Y25.0903 F80.00
G01 X-15.1141 Y25.0970 F80.00
G01 X-15.0585 Y25.1066 F80.00
G01 X-15.0058 Y25.1184 F80.00
G01 X-14.9526 Y25.1331 F80.00
G01 X-14.9002 Y25.1504 F80.00
G01 X-14.8480 Y25.1704 F80.00
G01 X-14.7981 Y25.1925 F80.00
G01 X-14.7466 Y25.2184 F80.00
G01 X-14.6986 Y25.2457 F80.00
G01 X-14.6520 Y25.2753 F80.00
G01 X-14.6076 Y25.3066 F80.00
G01 X-14.5634 Y25.3412 F80.00
G01 X-14.5216 Y25.3773 F80.00
G01 X-14.4825 Y25.4145 F80.00
G01 X-14.4453 Y25.4536 F80.00
G01 X-14.4090 Y25.4956 F80.00
G01 X-14.3746 Y25.5396 F80.00
G01 X-14.3433 Y25.5840 F80.00
G01 X-14.3136 Y25.6308 F80.00
G01 X-14.2864 Y25.6786 F80.00
G01 X-14.2605 Y25.7301 F80.00
G01 X-14.2384 Y25.7800 F80.00
G01 X-14.2184 Y25.8322 F80.00
G01 X-14.2011 Y25.8846 F80.00
G01 X-14.1864 Y25.9378 F80.00
G01 X-14.1746 Y25.9905 F80.00
G01 X-14.1650 Y26.0461 F80.00
G01 X-14.1585 Y26.0988 F80.00
G01 X-14.1544 Y26.1536 F80.00
G01 X-14.1530 Y26.2100 F80.00
G01 X-14.1530 Y28.0600 F80.00
G01 X-14.1544 Y28.1164 F80.00
G01 X-14.1586 Y28.1715 F80.00
G01 X-14.1650 Y28.2239 F80.00
G01 X-14.1746 Y28.2795 F80.00
G01 X-14.1864 Y28.3322 F80.00
G01 X-14.2011 Y28.3854 F80.00
G01 X-14.2184 Y28.4378 F80.00
G01 X-14.2384 Y28.4900 F80.00
G01 X-14.2605 Y28.5399 F80.00
G01 X-14.2864 Y28.5914 F80.00
G01 X-14.3137 Y28.6394 F80.00
G01 X-14.3433 Y28.6860 F80.00
G01 X-14.3746 Y28.7304 F80.00
G01 X-14.4076 Y28.7727 F80.00
G01 X-14.4436 Y28.8146 F80.00
G01 X-14.4816 Y28.8546 F80.00
G01 X-14.5276 Y28.8980 F80.00
G01 X-14.5276 Y38.1980 F80.00
G01 X-14.4815 Y38.1876 F80.00
G01 X-14.4283 Y38.1784 F80.00
G01 X-14.3732 Y38.1715 F80.00
G01 X-14.3184 Y38.1674 F80.00
G01 X-14.2620 Y38.1660 F80.00
G01 X-14.2056 Y38.1674 F80.00
G01 X-14.1505 Y38.1716 F80.00
G01 X-14.0957 Y38.1784 F80.00
G01 X-14.0425 Y38.1876 F80.00
G01 X-13.9898 Y38.1994 F80.00
G01 X-13.9366 Y38.2141 F80.00
G01 X-13.8842 Y38.2314 F80.00
G01 X-13.8320 Y38.2514 F80.00
G01 X-13.7799 Y38.2746 F80.00
G01 X-13.7306 Y38.2994 F80.00
G01 X-13.6826 Y38.3267 F80.00
G01 X-13.6360 Y38.3563 F80.00
G01 X-13.5916 Y38.3876 F80.00
G01 X-13.5493 Y38.4206 F80.00
G01 X-13.5074 Y38.4566 F80.00
G01 X-13.4665 Y38.4955 F80.00
G01 X-13.4276 Y38.5364 F80.00
G01 X-13.3916 Y38.5783 F80.00
G01 X-13.3586 Y38.6206 F80.00
G01 X-13.3273 Y38.6650 F80.00
G01 X-13.2977 Y38.7116 F80.00
G01 X-13.2704 Y38.7596 F80.00
G01 X-13.2455 Y38.8090 F80.00
G01 X-13.2224 Y38.8610 F80.00
G01 X-13.2024 Y38.9132 F80.00
G01 X-13.1851 Y38.9656 F80.00
G01 X-13.1704 Y39.0188 F80.00
G01 X-13.1586 Y39.0715 F80.00
G01 X-13.1494 Y39.1247 F80.00
G01 X-13.1426 Y39.1795 F80.00
G01 X-13.1384 Y39.2346 F80.00
G01 X-13.1370 Y39.2910 F80.00
G01 X-13.1370 Y41.1422 F80.00
G01 X-13.1384 Y41.1974 F80.00
G01 X-13.1423 Y41.2500 F80.00
G01 X-13.1494 Y41.3073 F80.00
G01 X-13.1586 Y41.3605 F80.00
G01 X-13.1704 Y41.4132 F80.00
G01 X-13.1858 Y41.4687 F80.00
G01 X-13.2032 Y41.5212 F80.00
G01 X-13.2222 Y41.5704 F80.00
G01 X-13.2455 Y41.6230 F80.00
G01 X-13.2693 Y41.6702 F80.00
G01 X-13.2964 Y41.7183 F80.00
G01 X-13.3273 Y41.7670 F80.00
G01 X-13.3586 Y41.8114 F80.00
G01 X-13.3916 Y41.8537 F80.00
G01 X-13.4293 Y41.8974 F80.00
G01 X-13.4665 Y41.9365 F80.00
G01 X-13.5056 Y41.9737 F80.00
G01 X-13.5474 Y42.0098 F80.00
G01 X-13.5928 Y42.0453 F80.00
G01 X-13.6380 Y42.0771 F80.00
G01 X-13.6826 Y42.1053 F80.00
G01 X-13.7306 Y42.1326 F80.00
G01 X-13.7821 Y42.1585 F80.00
G01 X-13.8320 Y42.1806 F80.00
G01 X-13.8818 Y42.1998 F80.00
G01 X-13.9366 Y42.2179 F80.00
G01 X-13.9898 Y42.2326 F80.00
G01 X-14.0413 Y42.2441 F80.00
G01 X-14.0981 Y42.2540 F80.00
G01 X-14.1508 Y42.2605 F80.00
G01 X-14.2056 Y42.2646 F80.00
G01 X-14.2620 Y42.2660 F80.00
G01 X-14.3160 Y42.2647 F80.00
G01 X-14.3710 Y42.2607 F80.00
G01 X-14.4283 Y42.2536 F80.00
G01 X-14.4815 Y42.2444 F80.00
G01 X-14.5342 Y42.2326 F80.00
G01 X-14.5897 Y42.2172 F80.00
G01 X-14.6422 Y42.1998 F80.00
G01 X-14.6920 Y42.1806 F80.00
G01 X-14.7419 Y42.1585 F80.00
G01 X-14.7934 Y42.1326 F80.00
G01 X-14.8414 Y42.1053 F80.00
G01 X-14.8880 Y42.0757 F80.00
G01 X-14.9312 Y42.0453 F80.00
G01 X-14.9766 Y42.0098 F80.00
G01 X-15.0184 Y41.9737 F80.00
G01 X-15.0566 Y41.9374 F80.00
G01 X-15.0964 Y41.8956 F80.00
G01 X-15.1310 Y41.8554 F80.00
G01 X-15.1649 Y41.8121 F80.00
G01 X-15.1981 Y41.7650 F80.00
G01 X-15.2276 Y41.7183 F80.00
G01 X-15.2547 Y41.6702 F80.00
G01 X-15.2784 Y41.6231 F80.00
G01 X-15.3016 Y41.5710 F80.00
G01 X-15.3216 Y41.5188 F80.00
G01 X-15.3389 Y41.4664 F80.00
G01 X-15.3530 Y41.4155 F80.00
G01 X-15.3651 Y41.3617 F80.00
G01 X-15.3746 Y41.3073 F80.00
G01 X-15.3815 Y41.2522 F80.00
G01 X-15.3856 Y41.1974 F80.00
G01 X-15.3870 Y41.1410 F80.00
G01 X-15.3870 Y40.1522 F80.00
G01 X-15.8086 Y39.7306 F80.00
G01 X-15.8348 Y39.7030 F80.00
G01 X-15.8574 Y39.6767 F80.00
G01 X-15.8805 Y39.6472 F80.00
G01 X-15.9026 Y39.6158 F80.00
G01 X-15.9211 Y39.5866 F80.00
G01 X-15.9392 Y39.5548 F80.00
G01 X-15.9558 Y39.5218 F80.00
G01 X-15.9715 Y39.4866 F80.00
G01 X-15.9849 Y39.4516 F80.00
G01 X-15.9964 Y39.4166 F80.00
G01 X-16.0056 Y39.3835 F80.00
G01 X-16.0139 Y39.3464 F80.00
G01 X-16.0204 Y39.3089 F80.00
G01 X-16.0246 Y39.2745 F80.00
G01 X-16.0274 Y39.2380 F80.00
G01 X-16.0284 Y39.2000 F80.00
G01 X-16.0284 Y28.8980 F80.00
G01 X-16.0744 Y28.8546 F80.00
G01 X-16.1124 Y28.8146 F80.00
G01 X-16.1484 Y28.7727 F80.00
G01 X-16.1814 Y28.7304 F80.00
G01 X-16.2141 Y28.6840 F80.00
G01 X-16.2424 Y28.6392 F80.00
G01 X-16.2696 Y28.5914 F80.00
G01 X-16.2955 Y28.5399 F80.00
G01 X-16.3176 Y28.4900 F80.00
G01 X-16.3376 Y28.4378 F80.00
G01 X-16.3549 Y28.3854 F80.00
G01 X-16.3696 Y28.3322 F80.00
G01 X-16.3814 Y28.2795 F80.00
G01 X-16.3910 Y28.2239 F80.00
G01 X-16.3975 Y28.1712 F80.00
G01 X-16.4016 Y28.1164 F80.00
G01 X-16.4030 Y28.0600 F80.00
G01 X-16.4030 Y26.2100 F80.00
G01 X-16.4017 Y26.1560 F80.00
G00 Z1.9990
G00 X-4.3727 Y24.7950
G01 F80.00
G01 Z-0.1493
G01 F80.00
G01 X-4.3687 Y24.7400 F80.00
G01 X-4.3620 Y24.6851 F80.00
G01 X-4.3524 Y24.6295 F80.00
G01 X-4.3406 Y24.5768 F80.00
G01 X-4.3259 Y24.5236 F80.00
G01 X-4.3086 Y24.4712 F80.00
G01 X-4.2886 Y24.4190 F80.00
G01 X-4.2654 Y24.3669 F80.00
G01 X-4.2406 Y24.3176 F80.00
G01 X-4.2133 Y24.2696 F80.00
G01 X-4.1837 Y24.2230 F80.00
G01 X-4.1524 Y24.1786 F80.00
G01 X-4.1194 Y24.1363 F80.00
G01 X-4.0834 Y24.0944 F80.00
G01 X-4.0445 Y24.0535 F80.00
G01 X-4.0054 Y24.0163 F80.00
G01 X-3.9634 Y23.9800 F80.00
G01 X-3.9194 Y23.9456 F80.00
G01 X-3.8730 Y23.9129 F80.00
G01 X-3.8282 Y23.8846 F80.00
G01 X-3.7782 Y23.8563 F80.00
G01 X-3.7310 Y23.8325 F80.00
G01 X-3.6790 Y23.8094 F80.00
G01 X-3.6268 Y23.7894 F80.00
G01 X-3.5744 Y23.7721 F80.00
G01 X-3.5212 Y23.7574 F80.00
G01 X-3.4685 Y23.7456 F80.00
G01 X-3.4153 Y23.7364 F80.00
G01 X-3.3602 Y23.7295 F80.00
G01 X-3.3054 Y23.7254 F80.00
G01 X-3.2502 Y23.7240 F80.00
G01 X-3.0744 Y23.7240 F80.00
G01 X-3.0744 Y16.3280 F80.00
G01 X-3.2490 Y16.3280 F80.00
G01 X-3.3030 Y16.3267 F80.00
G01 X-3.3580 Y16.3227 F80.00
G01 X-3.4129 Y16.3160 F80.00
G01 X-3.4685 Y16.3064 F80.00
G01 X-3.5235 Y16.2940 F80.00
G01 X-3.5767 Y16.2792 F80.00
G01 X-3.6268 Y16.2626 F80.00
G01 X-3.6790 Y16.2426 F80.00
G01 X-3.7310 Y16.2195 F80.00
G01 X-3.7804 Y16.1946 F80.00
G01 X-3.8284 Y16.1673 F80.00
G01 X-3.8730 Y16.1391 F80.00
G01 X-3.9194 Y16.1064 F80.00
G01 X-3.9636 Y16.0718 F80.00
G01 X-4.0054 Y16.0357 F80.00
G01 X-4.0445 Y15.9985 F80.00
G01 X-4.0817 Y15.9594 F80.00
G01 X-4.1178 Y15.9176 F80.00
G01 X-4.1524 Y15.8734 F80.00
G01 X-4.1851 Y15.8270 F80.00
G01 X-4.2134 Y15.7822 F80.00
G01 X-4.2406 Y15.7344 F80.00
G01 X-4.2655 Y15.6850 F80.00
G01 X-4.2886 Y15.6330 F80.00
G01 X-4.3086 Y15.5808 F80.00
G01 X-4.3259 Y15.5284 F80.00
G01 X-4.3400 Y15.4775 F80.00
G01 X-4.3524 Y15.4225 F80.00
G01 X-4.3620 Y15.3669 F80.00
G01 X-4.3685 Y15.3142 F80.00
G01 X-4.3726 Y15.2594 F80.00
G01 X-4.3740 Y15.2030 F80.00
G01 X-4.3726 Y15.1466 F80.00
G01 X-4.3684 Y15.0915 F80.00
G01 X-4.3616 Y15.0367 F80.00
G01 X-4.3526 Y14.9847 F80.00
G01 X-4.3400 Y14.9285 F80.00
G01 X-4.3252 Y14.8753 F80.00
G01 X-4.3078 Y14.8228 F80.00
G01 X-4.2886 Y14.7730 F80.00
G01 X-4.2665 Y14.7231 F80.00
G01 X-4.2406 Y14.6716 F80.00
G01 X-4.2133 Y14.6236 F80.00
G01 X-4.1837 Y14.5770 F80.00
G01 X-4.1533 Y14.5338 F80.00
G01 X-4.1178 Y14.4884 F80.00
G01 X-4.0817 Y14.4466 F80.00
G01 X-4.0445 Y14.4075 F80.00
G01 X-4.0054 Y14.3703 F80.00
G01 X-3.9634 Y14.3340 F80.00
G01 X-3.9182 Y14.2987 F80.00
G01 X-3.8730 Y14.2669 F80.00
G01 X-3.8282 Y14.2386 F80.00
G01 X-3.7804 Y14.2114 F80.00
G01 X-3.7289 Y14.1855 F80.00
G01 X-3.6790 Y14.1634 F80.00
G01 X-3.6292 Y14.1442 F80.00
G01 X-3.5767 Y14.1268 F80.00
G01 X-3.5212 Y14.1114 F80.00
G01 X-3.4685 Y14.0996 F80.00
G01 X-3.4153 Y14.0904 F80.00
G01 X-3.3605 Y14.0836 F80.00
G01 X-3.3054 Y14.0794 F80.00
G01 X-3.2502 Y14.0780 F80.00
G01 X-1.3990 Y14.0780 F80.00
G01 X-1.3450 Y14.0793 F80.00
G01 X-1.2900 Y14.0833 F80.00
G01 X-1.2327 Y14.0904 F80.00
G01 X-1.1795 Y14.0996 F80.00
G01 X-1.1268 Y14.1114 F80.00
G01 X-1.0713 Y14.1268 F80.00
G01 X-1.0188 Y14.1442 F80.00
G01 X-0.9690 Y14.1634 F80.00
G01 X-0.9170 Y14.1865 F80.00
G01 X-0.8698 Y14.2103 F80.00
G01 X-0.8196 Y14.2387 F80.00
G01 X-0.7730 Y14.2683 F80.00
G01 X-0.7286 Y14.2996 F80.00
G01 X-0.6863 Y14.3326 F80.00
G01 X-0.6444 Y14.3686 F80.00
G01 X-0.6026 Y14.4084 F80.00
G01 X-0.5646 Y14.4484 F80.00
G01 X-0.5300 Y14.4886 F80.00
G01 X-0.4956 Y14.5326 F80.00
G01 X-0.4643 Y14.5770 F80.00
G01 X-0.4334 Y14.6257 F80.00
G01 X-0.4063 Y14.6738 F80.00
G01 X-0.3815 Y14.7231 F80.00
G01 X-0.3594 Y14.7730 F80.00
G01 X-0.3394 Y14.8252 F80.00
G01 X-0.3221 Y14.8776 F80.00
G01 X-0.3080 Y14.9285 F80.00
G01 X-0.2954 Y14.9847 F80.00
G01 X-0.2860 Y15.0391 F80.00
G01 X-0.2795 Y15.0918 F80.00
G01 X-0.2754 Y15.1466 F80.00
G01 X-0.2740 Y15.2018 F80.00
G01 X-0.2754 Y15.2594 F80.00
G01 X-0.2796 Y15.3145 F80.00
G01 X-0.2864 Y15.3693 F80.00
G01 X-0.2956 Y15.4225 F80.00
G01 X-0.3080 Y15.4775 F80.00
G01 X-0.3228 Y15.5307 F80.00
G01 X-0.3402 Y15.5832 F80.00
G01 X-0.3594 Y15.6330 F80.00
G01 X-0.3815 Y15.6829 F80.00
G01 X-0.4063 Y15.7322 F80.00
G01 X-0.4334 Y15.7803 F80.00
G01 X-0.4629 Y15.8270 F80.00
G01 X-0.4956 Y15.8734 F80.00
G01 X-0.5286 Y15.9157 F80.00
G01 X-0.5646 Y15.9576 F80.00
G01 X-0.6035 Y15.9985 F80.00
G01 X-0.6426 Y16.0357 F80.00
G01 X-0.6846 Y16.0720 F80.00
G01 X-0.7286 Y16.1064 F80.00
G01 X-0.7750 Y16.1391 F80.00
G01 X-0.8198 Y16.1674 F80.00
G01 X-0.8698 Y16.1957 F80.00
G01 X-0.9170 Y16.2195 F80.00
G01 X-0.9690 Y16.2426 F80.00
G01 X-1.0212 Y16.2626 F80.00
G01 X-1.0736 Y16.2799 F80.00
G01 X-1.1268 Y16.2946 F80.00
G01 X-1.1795 Y16.3064 F80.00
G01 X-1.2327 Y16.3156 F80.00
G01 X-1.2878 Y16.3225 F80.00
G01 X-1.3426 Y16.3266 F80.00
G01 X-1.3978 Y16.3280 F80.00
G01 X-1.5736 Y16.3280 F80.00
G01 X-1.5736 Y23.7240 F80.00
G01 X-1.3990 Y23.7240 F80.00
G01 X-1.3450 Y23.7253 F80.00
G01 X-1.2900 Y23.7293 F80.00
G01 X-1.2351 Y23.7360 F80.00
G01 X-1.1795 Y23.7456 F80.00
G01 X-1.1245 Y23.7580 F80.00
G01 X-1.0713 Y23.7728 F80.00
G01 X-1.0212 Y23.7894 F80.00
G01 X-0.9690 Y23.8094 F80.00
G01 X-0.9170 Y23.8325 F80.00
G01 X-0.8676 Y23.8574 F80.00
G01 X-0.8196 Y23.8847 F80.00
G01 X-0.7750 Y23.9129 F80.00
G01 X-0.7286 Y23.9456 F80.00
G01 X-0.6844 Y23.9802 F80.00
G01 X-0.6426 Y24.0163 F80.00
G01 X-0.6035 Y24.0535 F80.00
G01 X-0.5663 Y24.0926 F80.00
G01 X-0.5302 Y24.1344 F80.00
G01 X-0.4956 Y24.1786 F80.00
G01 X-0.4629 Y24.2250 F80.00
G01 X-0.4346 Y24.2698 F80.00
G01 X-0.4074 Y24.3176 F80.00
G01 X-0.3825 Y24.3670 F80.00
G01 X-0.3594 Y24.4190 F80.00
G01 X-0.3394 Y24.4712 F80.00
G01 X-0.3221 Y24.5236 F80.00
G01 X-0.3080 Y24.5745 F80.00
G01 X-0.2956 Y24.6295 F80.00
G01 X-0.2860 Y24.6851 F80.00
G01 X-0.2795 Y24.7378 F80.00
G01 X-0.2754 Y24.7926 F80.00
G01 X-0.2740 Y24.8490 F80.00
G01 X-0.2754 Y24.9054 F80.00
G01 X-0.2796 Y24.9605 F80.00
G01 X-0.2864 Y25.0153 F80.00
G01 X-0.2954 Y25.0673 F80.00
G01 X-0.3080 Y25.1235 F80.00
G01 X-0.3228 Y25.1767 F80.00
G01 X-0.3402 Y25.2292 F80.00
G01 X-0.3594 Y25.2790 F80.00
G01 X-0.3815 Y25.3289 F80.00
G01 X-0.4074 Y25.3804 F80.00
G01 X-0.4347 Y25.4284 F80.00
G01 X-0.4643 Y25.4750 F80.00
G01 X-0.4947 Y25.5182 F80.00
G01 X-0.5302 Y25.5636 F80.00
G01 X-0.5663 Y25.6054 F80.00
G01 X-0.6035 Y25.6445 F80.00
G01 X-0.6426 Y25.6817 F80.00
G01 X-0.6846 Y25.7180 F80.00
G01 X-0.7298 Y25.7533 F80.00
G01 X-0.7750 Y25.7851 F80.00
G01 X-0.8198 Y25.8134 F80.00
G01 X-0.8676 Y25.8406 F80.00
G01 X-0.9170 Y25.8655 F80.00
G01 X-0.9696 Y25.8888 F80.00
G01 X-1.0212 Y25.9086 F80.00
G01 X-1.0736 Y25.9259 F80.00
G01 X-1.1245 Y25.9400 F80.00
G01 X-1.1795 Y25.9524 F80.00
G01 X-1.2351 Y25.9620 F80.00
G01 X-1.2900 Y25.9687 F80.00
G01 X-1.3450 Y25.9727 F80.00
G01 X-1.3978 Y25.9740 F80.00
G01 X-3.2490 Y25.9740 F80.00
G01 X-3.3030 Y25.9727 F80.00
G01 X-3.3580 Y25.9687 F80.00
G01 X-3.4129 Y25.9620 F80.00
G01 X-3.4685 Y25.9524 F80.00
G01 X-3.5212 Y25.9406 F80.00
G01 X-3.5744 Y25.9259 F80.00
G01 X-3.6268 Y25.9086 F80.00
G01 X-3.6790 Y25.8886 F80.00
G01 X-3.7310 Y25.8655 F80.00
G01 X-3.7782 Y25.8417 F80.00
G01 X-3.8263 Y25.8146 F80.00
G01 X-3.8730 Y25.7851 F80.00
G01 X-3.9194 Y25.7524 F80.00
G01 X-3.9617 Y25.7194 F80.00
G01 X-4.0054 Y25.6817 F80.00
G01 X-4.0445 Y25.6445 F80.00
G01 X-4.0834 Y25.6036 F80.00
G01 X-4.1180 Y25.5634 F80.00
G01 X-4.1524 Y25.5194 F80.00
G01 X-4.1837 Y25.4750 F80.00
G01 X-4.2134 Y25.4282 F80.00
G01 X-4.2406 Y25.3804 F80.00
G01 X-4.2655 Y25.3310 F80.00
G01 X-4.2886 Y25.2790 F80.00
G01 X-4.3086 Y25.2268 F80.00
G01 X-4.3259 Y25.1744 F80.00
G01 X-4.3406 Y25.1212 F80.00
G01 X-4.3524 Y25.0685 F80.00
G01 X-4.3620 Y25.0129 F80.00
G01 X-4.3685 Y24.9602 F80.00
G01 X-4.3727 Y24.9030 F80.00
G01 X-4.3740 Y24.8490 F80.00
G01 X-4.3727 Y24.7950 F80.00
G00 Z1.9990
G00 X-4.3727 Y27.5950
G01 F80.00
G01 Z-0.1493
G01 F80.00
G01 X-4.3684 Y27.5375 F80.00
G01 X-4.3616 Y27.4827 F80.00
G01 X-4.3521 Y27.4283 F80.00
G01 X-4.3400 Y27.3745 F80.00
G01 X-4.3252 Y27.3213 F80.00
G01 X-4.3078 Y27.2688 F80.00
G01 X-4.2879 Y27.2174 F80.00
G01 X-4.2655 Y27.1670 F80.00
G01 X-4.2406 Y27.1176 F80.00
G01 X-4.2133 Y27.0696 F80.00
G01 X-4.1837 Y27.0230 F80.00
G01 X-4.1524 Y26.9786 F80.00
G01 X-4.1178 Y26.9344 F80.00
G01 X-4.0817 Y26.8926 F80.00
G01 X-4.0445 Y26.8535 F80.00
G01 X-4.0054 Y26.8163 F80.00
G01 X-3.9634 Y26.7800 F80.00
G01 X-3.9194 Y26.7456 F80.00
G01 X-3.8750 Y26.7143 F80.00
G01 X-3.8282 Y26.6846 F80.00
G01 X-3.7804 Y26.6574 F80.00
G01 X-3.7310 Y26.6325 F80.00
G01 X-3.6806 Y26.6101 F80.00
G01 X-3.6268 Y26.5894 F80.00
G01 X-3.5744 Y26.5721 F80.00
G01 X-3.5212 Y26.5574 F80.00
G01 X-3.4685 Y26.5456 F80.00
G01 X-3.4129 Y26.5360 F80.00
G01 X-3.3602 Y26.5295 F80.00
G01 X-3.3030 Y26.5253 F80.00
G01 X-3.2490 Y26.5240 F80.00
G01 X-1.3978 Y26.5240 F80.00
G01 X-1.3426 Y26.5254 F80.00
G01 X-1.2900 Y26.5293 F80.00
G01 X-1.2327 Y26.5364 F80.00
G01 X-1.1795 Y26.5456 F80.00
G01 X-1.1268 Y26.5574 F80.00
G01 X-1.0713 Y26.5728 F80.00
G01 X-1.0188 Y26.5902 F80.00
G01 X-0.9696 Y26.6092 F80.00
G01 X-0.9170 Y26.6325 F80.00
G01 X-0.8698 Y26.6563 F80.00
G01 X-0.8217 Y26.6834 F80.00
G01 X-0.7730 Y26.7143 F80.00
G01 X-0.7286 Y26.7456 F80.00
G01 X-0.6863 Y26.7786 F80.00
G01 X-0.6426 Y26.8163 F80.00
G01 X-0.6035 Y26.8535 F80.00
G01 X-0.5663 Y26.8926 F80.00
G01 X-0.5302 Y26.9344 F80.00
G01 X-0.4947 Y26.9798 F80.00
G01 X-0.4629 Y27.0250 F80.00
G01 X-0.4347 Y27.0696 F80.00
G01 X-0.4074 Y27.1176 F80.00
G01 X-0.3815 Y27.1691 F80.00
G01 X-0.3594 Y27.2190 F80.00
G01 X-0.3402 Y27.2688 F80.00
G01 X-0.3221 Y27.3236 F80.00
G01 X-0.3074 Y27.3768 F80.00
G01 X-0.2959 Y27.4283 F80.00
G01 X-0.2860 Y27.4851 F80.00
G01 X-0.2795 Y27.5378 F80.00
G01 X-0.2753 Y27.5950 F80.00
G01 X-0.2740 Y27.6502 F80.00
G01 X-0.2754 Y27.7054 F80.00
G01 X-0.2793 Y27.7580 F80.00
G01 X-0.2864 Y27.8153 F80.00
G01 X-0.2959 Y27.8697 F80.00
G01 X-0.3080 Y27.9235 F80.00
G01 X-0.3228 Y27.9767 F80.00
G01 X-0.3394 Y28.0268 F80.00
G01 X-0.3594 Y28.0790 F80.00
G01 X-0.3825 Y28.1310 F80.00
G01 X-0.4074 Y28.1804 F80.00
G01 X-0.4347 Y28.2284 F80.00
G01 X-0.4643 Y28.2750 F80.00
G01 X-0.4956 Y28.3194 F80.00
G01 X-0.5286 Y28.3617 F80.00
G01 X-0.5646 Y28.4036 F80.00
G01 X-0.6035 Y28.4445 F80.00
G01 X-0.6444 Y28.4834 F80.00
G01 X-0.6863 Y28.5194 F80.00
G01 X-0.7286 Y28.5524 F80.00
G01 X-0.7730 Y28.5837 F80.00
G01 X-0.8196 Y28.6133 F80.00
G01 X-0.8676 Y28.6406 F80.00
G01 X-0.9170 Y28.6655 F80.00
G01 X-0.9690 Y28.6886 F80.00
G01 X-1.0212 Y28.7086 F80.00
G01 X-1.0736 Y28.7259 F80.00
G01 X-1.1245 Y28.7400 F80.00
G01 X-1.1783 Y28.7521 F80.00
G01 X-1.2327 Y28.7616 F80.00
G01 X-1.2878 Y28.7685 F80.00
G01 X-1.3426 Y28.7726 F80.00
G01 X-1.3978 Y28.7740 F80.00
G01 X-1.5736 Y28.7740 F80.00
G01 X-1.5736 Y39.9718 F80.00
G01 X-1.5616 Y39.9823 F80.00
G01 X-1.5216 Y40.0204 F80.00
G01 X-1.4836 Y40.0604 F80.00
G01 X-1.4476 Y40.1023 F80.00
G01 X-1.4146 Y40.1446 F80.00
G01 X-1.3819 Y40.1910 F80.00
G01 X-1.3536 Y40.2358 F80.00
G01 X-1.3264 Y40.2836 F80.00
G01 X-1.3005 Y40.3351 F80.00
G01 X-1.2784 Y40.3850 F80.00
G01 X-1.2584 Y40.4372 F80.00
G01 X-1.2411 Y40.4896 F80.00
G01 X-1.2264 Y40.5428 F80.00
G01 X-1.2146 Y40.5955 F80.00
G01 X-1.2050 Y40.6511 F80.00
G01 X-1.1985 Y40.7038 F80.00
G01 X-1.1944 Y40.7586 F80.00
G01 X-1.1930 Y40.8150 F80.00
G01 X-1.1930 Y42.6650 F80.00
G01 X-1.1943 Y42.7190 F80.00
G01 X-1.1986 Y42.7765 F80.00
G01 X-1.2054 Y42.8313 F80.00
G01 X-1.2149 Y42.8857 F80.00
G01 X-1.2270 Y42.9395 F80.00
G01 X-1.2418 Y42.9927 F80.00
G01 X-1.2592 Y43.0452 F80.00
G01 X-1.2784 Y43.0950 F80.00
G01 X-1.3015 Y43.1470 F80.00
G01 X-1.3253 Y43.1942 F80.00
G01 X-1.3537 Y43.2444 F80.00
G01 X-1.3833 Y43.2910 F80.00
G01 X-1.4146 Y43.3354 F80.00
G01 X-1.4476 Y43.3777 F80.00
G01 X-1.4836 Y43.4196 F80.00
G01 X-1.5225 Y43.4605 F80.00
G01 X-1.5616 Y43.4977 F80.00
G01 X-1.6053 Y43.5354 F80.00
G01 X-1.6476 Y43.5684 F80.00
G01 X-1.6940 Y43.6011 F80.00
G01 X-1.7388 Y43.6294 F80.00
G01 X-1.7866 Y43.6566 F80.00
G01 X-1.8381 Y43.6825 F80.00
G01 X-1.8880 Y43.7046 F80.00
G01 X-1.9402 Y43.7246 F80.00
G01 X-1.9926 Y43.7419 F80.00
G01 X-2.0458 Y43.7566 F80.00
G01 X-2.0985 Y43.7684 F80.00
G01 X-2.1541 Y43.7780 F80.00
G01 X-2.2068 Y43.7845 F80.00
G01 X-2.2640 Y43.7887 F80.00
G01 X-2.3180 Y43.7900 F80.00
G01 X-2.3744 Y43.7886 F80.00
G01 X-2.4295 Y43.7844 F80.00
G01 X-2.4843 Y43.7776 F80.00
G01 X-2.5375 Y43.7684 F80.00
G01 X-2.5925 Y43.7560 F80.00
G01 X-2.6457 Y43.7412 F80.00
G01 X-2.6982 Y43.7238 F80.00
G01 X-2.7480 Y43.7046 F80.00
G01 X-2.8000 Y43.6815 F80.00
G01 X-2.8494 Y43.6566 F80.00
G01 X-2.8974 Y43.6293 F80.00
G01 X-2.9440 Y43.5997 F80.00
G01 X-2.9884 Y43.5684 F80.00
G01 X-3.0307 Y43.5354 F80.00
G01 X-3.0726 Y43.4994 F80.00
G01 X-3.1135 Y43.4605 F80.00
G01 X-3.1507 Y43.4214 F80.00
G01 X-3.1870 Y43.3794 F80.00
G01 X-3.2214 Y43.3354 F80.00
G01 X-3.2527 Y43.2910 F80.00
G01 X-3.2824 Y43.2442 F80.00
G01 X-3.3096 Y43.1964 F80.00
G01 X-3.3345 Y43.1470 F80.00
G01 X-3.3576 Y43.0950 F80.00
G01 X-3.3776 Y43.0428 F80.00
G01 X-3.3949 Y42.9904 F80.00
G01 X-3.4096 Y42.9372 F80.00
G01 X-3.4214 Y42.8845 F80.00
G01 X-3.4310 Y42.8289 F80.00
G01 X-3.4375 Y42.7762 F80.00
G01 X-3.4416 Y42.7214 F80.00
G01 X-3.4430 Y42.6650 F80.00
G01 X-3.4430 Y40.8150 F80.00
G01 X-3.4416 Y40.7586 F80.00
G01 X-3.4374 Y40.7035 F80.00
G01 X-3.4310 Y40.6511 F80.00
G01 X-3.4214 Y40.5955 F80.00
G01 X-3.4096 Y40.5428 F80.00
G01 X-3.3942 Y40.4873 F80.00
G01 X-3.3768 Y40.4348 F80.00
G01 X-3.3576 Y40.3850 F80.00
G01 X-3.3345 Y40.3330 F80.00
G01 X-3.3107 Y40.2858 F80.00
G01 X-3.2823 Y40.2356 F80.00
G01 X-3.2527 Y40.1890 F80.00
G01 X-3.2209 Y40.1439 F80.00
G01 X-3.1868 Y40.1004 F80.00
G01 X-3.1507 Y40.0586 F80.00
G01 X-3.1135 Y40.0195 F80.00
G01 X-3.0744 Y39.9822 F80.00
G01 X-3.0744 Y28.7740 F80.00
G01 X-3.2502 Y28.7740 F80.00
G01 X-3.3054 Y28.7726 F80.00
G01 X-3.3580 Y28.7687 F80.00
G01 X-3.4129 Y28.7620 F80.00
G01 X-3.4685 Y28.7524 F80.00
G01 X-3.5235 Y28.7400 F80.00
G01 X-3.5767 Y28.7252 F80.00
G01 X-3.6292 Y28.7078 F80.00
G01 X-3.6790 Y28.6886 F80.00
G01 X-3.7289 Y28.6665 F80.00
G01 X-3.7782 Y28.6417 F80.00
G01 X-3.8263 Y28.6146 F80.00
G01 X-3.8730 Y28.5851 F80.00
G01 X-3.9194 Y28.5524 F80.00
G01 X-3.9636 Y28.5178 F80.00
G01 X-4.0054 Y28.4817 F80.00
G01 X-4.0445 Y28.4445 F80.00
G01 X-4.0834 Y28.4036 F80.00
G01 X-4.1194 Y28.3617 F80.00
G01 X-4.1524 Y28.3194 F80.00
G01 X-4.1837 Y28.2750 F80.00
G01 X-4.2134 Y28.2282 F80.00
G01 X-4.2406 Y28.1804 F80.00
G01 X-4.2655 Y28.1310 F80.00
G01 X-4.2886 Y28.0790 F80.00
G01 X-4.3086 Y28.0268 F80.00
G01 X-4.3259 Y27.9744 F80.00
G01 X-4.3406 Y27.9212 F80.00
G01 X-4.3526 Y27.8673 F80.00
G01 X-4.3620 Y27.8129 F80.00
G01 X-4.3684 Y27.7605 F80.00
G01 X-4.3726 Y27.7054 F80.00
G01 X-4.3740 Y27.6490 F80.00
G01 X-4.3727 Y27.5950 F80.00
G00 Z1.9990
G00 X-8.0676 Y50.6232
G01 F80.00
G01 Z-0.1493
G01 F80.00
G01 X-8.0659 Y50.6000 F80.00
G01 X-8.0599 Y50.5599 F80.00
G01 X-8.0550 Y50.5384 F80.00
G01 X-8.0436 Y50.5008 F80.00
G01 X-8.0352 Y50.4790 F80.00
G01 X-8.0184 Y50.4435 F80.00
G01 X-8.0069 Y50.4232 F80.00
G01 X-7.9842 Y50.3894 F80.00
G01 X-7.9587 Y50.3582 F80.00
G01 X-7.9435 Y50.3422 F80.00
G01 X-7.9275 Y50.3270 F80.00
G01 X-7.8964 Y50.3015 F80.00
G01 X-7.8780 Y50.2887 F80.00
G01 X-7.8444 Y50.2685 F80.00
G01 X-7.8235 Y50.2580 F80.00
G01 X-7.7872 Y50.2430 F80.00
G01 X-7.7651 Y50.2356 F80.00
G01 X-7.7259 Y50.2259 F80.00
G01 X-7.7040 Y50.2221 F80.00
G01 X-7.6649 Y50.2183 F80.00
G01 X-7.6416 Y50.2177 F80.00
G01 X-7.6024 Y50.2196 F80.00
G01 X-7.5793 Y50.2225 F80.00
G01 X-7.5407 Y50.2301 F80.00
G01 X-7.5183 Y50.2363 F80.00
G01 X-7.4807 Y50.2498 F80.00
G01 X-7.4601 Y50.2590 F80.00
G01 X-7.4253 Y50.2775 F80.00
G01 X-7.4056 Y50.2900 F80.00
G01 X-7.3741 Y50.3134 F80.00
G01 X-7.3582 Y50.3270 F80.00
G01 X-7.3431 Y50.3413 F80.00
G01 X-7.3270 Y50.3582 F80.00
G01 X-7.3021 Y50.3886 F80.00
G01 X-7.2887 Y50.4077 F80.00
G01 X-7.2685 Y50.4414 F80.00
G01 X-7.2580 Y50.4622 F80.00
G01 X-7.2430 Y50.4985 F80.00
G01 X-7.2356 Y50.5206 F80.00
G01 X-7.2261 Y50.5587 F80.00
G01 X-7.2221 Y50.5817 F80.00
G01 X-7.2183 Y50.6208 F80.00
G01 X-7.2177 Y50.6429 F80.00
G01 X-7.2177 Y51.6462 F80.00
G01 X-7.1499 Y51.6462 F80.00
G01 X-6.2769 Y50.3990 F80.00
G01 X-6.2521 Y50.3670 F80.00
G01 X-6.2365 Y50.3497 F80.00
G01 X-6.2081 Y50.3225 F80.00
G01 X-6.1902 Y50.3077 F80.00
G01 X-6.1576 Y50.2846 F80.00
G01 X-6.1381 Y50.2729 F80.00
G01 X-6.1197 Y50.2631 F80.00
G01 X-6.1009 Y50.2542 F80.00
G01 X-6.0643 Y50.2399 F80.00
G01 X-6.0443 Y50.2337 F80.00
G01 X-6.0241 Y50.2286 F80.00
G01 X-6.0036 Y50.2244 F80.00
G01 X-5.9830 Y50.2212 F80.00
G01 X-5.9623 Y50.2190 F80.00
G01 X-5.9415 Y50.2179 F80.00
G01 X-5.9204 Y50.2178 F80.00
G01 X-5.8973 Y50.2188 F80.00
G01 X-5.8765 Y50.2209 F80.00
G01 X-5.8559 Y50.2239 F80.00
G01 X-5.8175 Y50.2324 F80.00
G01 X-5.7975 Y50.2384 F80.00
G01 X-5.7760 Y50.2460 F80.00
G01 X-5.7585 Y50.2532 F80.00
G01 X-5.7396 Y50.2620 F80.00
G01 X-5.7211 Y50.2717 F80.00
G01 X-5.7032 Y50.2823 F80.00
G01 X-5.6858 Y50.2938 F80.00
G01 X-5.6686 Y50.3064 F80.00
G01 X-5.6527 Y50.3193 F80.00
G01 X-5.6371 Y50.3333 F80.00
G01 X-5.6223 Y50.3479 F80.00
G01 X-5.6082 Y50.3633 F80.00
G01 X-5.5949 Y50.3794 F80.00
G01 X-5.5824 Y50.3960 F80.00
G01 X-5.5704 Y50.4138 F80.00
G01 X-5.5586 Y50.4333 F80.00
G01 X-5.5409 Y50.4683 F80.00
G01 X-5.5325 Y50.4883 F80.00
G01 X-5.5249 Y50.5095 F80.00
G01 X-5.5143 Y50.5473 F80.00
G01 X-5.5101 Y50.5678 F80.00
G01 X-5.5066 Y50.5908 F80.00
G01 X-5.5045 Y50.6116 F80.00
G01 X-5.5035 Y50.6324 F80.00
G01 X-5.5044 Y50.6717 F80.00
G01 X-5.5063 Y50.6925 F80.00
G01 X-5.5097 Y50.7156 F80.00
G01 X-5.5182 Y50.7539 F80.00
G01 X-5.5241 Y50.7739 F80.00
G01 X-5.5317 Y50.7955 F80.00
G01 X-5.5399 Y50.8152 F80.00
G01 X-5.5488 Y50.8340 F80.00
G01 X-5.5586 Y50.8524 F80.00
G01 X-5.5802 Y50.8867 F80.00
G01 X-6.1865 Y51.7528 F80.00
G01 X-6.0079 Y51.8426 F80.00
G01 X-5.9891 Y51.8537 F80.00
G01 X-5.9580 Y51.8750 F80.00
G01 X-5.9416 Y51.8880 F80.00
G01 X-5.9136 Y51.9136 F80.00
G01 X-5.7708 Y52.0565 F80.00
G01 X-5.7437 Y52.0863 F80.00
G01 X-5.7202 Y52.1175 F80.00
G01 X-5.6997 Y52.1507 F80.00
G01 X-5.5483 Y52.4527 F80.00
G01 X-5.5395 Y52.4714 F80.00
G01 X-5.5303 Y52.4940 F80.00
G01 X-5.5237 Y52.5129 F80.00
G01 X-5.5171 Y52.5358 F80.00
G01 X-5.5123 Y52.5563 F80.00
G01 X-5.5087 Y52.5761 F80.00
G01 X-5.5055 Y52.6004 F80.00
G01 X-5.5039 Y52.6223 F80.00
G01 X-5.5034 Y52.6429 F80.00
G01 X-5.5039 Y53.0920 F80.00
G01 X-5.5058 Y53.1164 F80.00
G01 X-5.5087 Y53.1381 F80.00
G01 X-5.5123 Y53.1580 F80.00
G01 X-5.5171 Y53.1785 F80.00
G01 X-5.5232 Y53.1995 F80.00
G01 X-5.5312 Y53.2227 F80.00
G01 X-5.5395 Y53.2429 F80.00
G01 X-5.5483 Y53.2616 F80.00
G01 X-5.6911 Y53.5473 F80.00
G01 X-5.7096 Y53.5804 F80.00
G01 X-5.7215 Y53.5987 F80.00
G01 X-5.7437 Y53.6280 F80.00
G01 X-5.7581 Y53.6445 F80.00
G01 X-5.9136 Y53.8007 F80.00
G01 X-5.9434 Y53.8277 F80.00
G01 X-5.9587 Y53.8398 F80.00
G01 X-5.9891 Y53.8606 F80.00
G01 X-6.0241 Y53.8803 F80.00
G01 X-6.3098 Y54.0232 F80.00
G01 X-6.3285 Y54.0319 F80.00
G01 X-6.3488 Y54.0402 F80.00
G01 X-6.3719 Y54.0483 F80.00
G01 X-6.3929 Y54.0543 F80.00
G01 X-6.4143 Y54.0593 F80.00
G01 X-6.4358 Y54.0632 F80.00
G01 X-6.4554 Y54.0657 F80.00
G01 X-6.4768 Y54.0674 F80.00
G01 X-6.5000 Y54.0680 F80.00
G01 X-7.6429 Y54.0680 F80.00
G01 X-7.6649 Y54.0675 F80.00
G01 X-7.7040 Y54.0636 F80.00
G01 X-7.7259 Y54.0599 F80.00
G01 X-7.7450 Y54.0556 F80.00
G01 X-7.7651 Y54.0501 F80.00
G01 X-7.7849 Y54.0436 F80.00
G01 X-7.8050 Y54.0359 F80.00
G01 X-7.8256 Y54.0267 F80.00
G01 X-7.8444 Y54.0172 F80.00
G01 X-7.8625 Y54.0069 F80.00
G01 X-7.8801 Y53.9957 F80.00
G01 X-7.8971 Y53.9836 F80.00
G01 X-7.9135 Y53.9707 F80.00
G01 X-7.9426 Y53.9444 F80.00
G01 X-7.9571 Y53.9293 F80.00
G01 X-7.9709 Y53.9133 F80.00
G01 X-7.9842 Y53.8964 F80.00
G01 X-7.9971 Y53.8781 F80.00
G01 X-8.0172 Y53.8444 F80.00
G01 X-8.0267 Y53.8256 F80.00
G01 X-8.0361 Y53.8044 F80.00
G01 X-8.0494 Y53.7675 F80.00
G01 X-8.0556 Y53.7450 F80.00
G01 X-8.0632 Y53.7065 F80.00
G01 X-8.0661 Y53.6833 F80.00
G01 X-8.0680 Y53.6441 F80.00
G01 X-8.0676 Y50.6232 F80.00
G00 Z1.9990
G00 X-9.4961 Y50.6232
G01 F80.00
G01 Z-0.1493
G01 F80.00
G01 X-9.4944 Y50.6000 F80.00
G01 X-9.4918 Y50.5793 F80.00
G01 X-9.4882 Y50.5587 F80.00
G01 X-9.4836 Y50.5384 F80.00
G01 X-9.4779 Y50.5183 F80.00
G01 X-9.4713 Y50.4985 F80.00
G01 X-9.4638 Y50.4790 F80.00
G01 X-9.4553 Y50.4601 F80.00
G01 X-9.4458 Y50.4414 F80.00
G01 X-9.4355 Y50.4232 F80.00
G01 X-9.4243 Y50.4056 F80.00
G01 X-9.4128 Y50.3894 F80.00
G01 X-9.3993 Y50.3722 F80.00
G01 X-9.3721 Y50.3422 F80.00
G01 X-9.3419 Y50.3148 F80.00
G01 X-9.3249 Y50.3015 F80.00
G01 X-9.3087 Y50.2900 F80.00
G01 X-9.2909 Y50.2787 F80.00
G01 X-9.2729 Y50.2685 F80.00
G01 X-9.2521 Y50.2580 F80.00
G01 X-9.2336 Y50.2498 F80.00
G01 X-9.2135 Y50.2421 F80.00
G01 X-9.1937 Y50.2356 F80.00
G01 X-9.1735 Y50.2301 F80.00
G01 X-9.1350 Y50.2225 F80.00
G01 X-9.1140 Y50.2198 F80.00
G01 X-9.0935 Y50.2183 F80.00
G01 X-9.0702 Y50.2177 F80.00
G01 X-9.0493 Y50.2183 F80.00
G01 X-9.0285 Y50.2199 F80.00
G01 X-8.9884 Y50.2259 F80.00
G01 X-8.9669 Y50.2307 F80.00
G01 X-8.9468 Y50.2363 F80.00
G01 X-8.9093 Y50.2498 F80.00
G01 X-8.8887 Y50.2590 F80.00
G01 X-8.8699 Y50.2685 F80.00
G01 X-8.8518 Y50.2788 F80.00
G01 X-8.8342 Y50.2900 F80.00
G01 X-8.8026 Y50.3134 F80.00
G01 X-8.7868 Y50.3270 F80.00
G01 X-8.7708 Y50.3422 F80.00
G01 X-8.7435 Y50.3722 F80.00
G01 X-8.7301 Y50.3894 F80.00
G01 X-8.7186 Y50.4056 F80.00
G01 X-8.7061 Y50.4253 F80.00
G01 X-8.6959 Y50.4435 F80.00
G01 X-8.6866 Y50.4622 F80.00
G01 X-8.6784 Y50.4807 F80.00
G01 X-8.6707 Y50.5008 F80.00
G01 X-8.6642 Y50.5206 F80.00
G01 X-8.6587 Y50.5407 F80.00
G01 X-8.6544 Y50.5599 F80.00
G01 X-8.6507 Y50.5817 F80.00
G01 X-8.6468 Y50.6208 F80.00
G01 X-8.6462 Y50.6429 F80.00
G01 X-8.6462 Y53.6429 F80.00
G01 X-8.6468 Y53.6649 F80.00
G01 X-8.6484 Y53.6858 F80.00
G01 X-8.6544 Y53.7259 F80.00
G01 X-8.6642 Y53.7651 F80.00
G01 X-8.6715 Y53.7872 F80.00
G01 X-8.6784 Y53.8050 F80.00
G01 X-8.6875 Y53.8256 F80.00
G01 X-8.7061 Y53.8604 F80.00
G01 X-8.7186 Y53.8801 F80.00
G01 X-8.7420 Y53.9116 F80.00
G01 X-8.7556 Y53.9275 F80.00
G01 X-8.7699 Y53.9426 F80.00
G01 X-8.7868 Y53.9587 F80.00
G01 X-8.8179 Y53.9842 F80.00
G01 X-8.8518 Y54.0069 F80.00
G01 X-8.8721 Y54.0184 F80.00
G01 X-8.9093 Y54.0359 F80.00
G01 X-8.9468 Y54.0494 F80.00
G01 X-8.9669 Y54.0550 F80.00
G01 X-8.9873 Y54.0596 F80.00
G01 X-9.0103 Y54.0636 F80.00
G01 X-9.0288 Y54.0659 F80.00
G01 X-9.0518 Y54.0676 F80.00
G01 X-9.0714 Y54.0680 F80.00
G01 X-9.0935 Y54.0675 F80.00
G01 X-9.1143 Y54.0659 F80.00
G01 X-9.1350 Y54.0632 F80.00
G01 X-9.1544 Y54.0599 F80.00
G01 X-9.1759 Y54.0550 F80.00
G01 X-9.1960 Y54.0494 F80.00
G01 X-9.2158 Y54.0428 F80.00
G01 X-9.2336 Y54.0359 F80.00
G01 X-9.2542 Y54.0267 F80.00
G01 X-9.2729 Y54.0172 F80.00
G01 X-9.2911 Y54.0069 F80.00
G01 X-9.3249 Y53.9842 F80.00
G01 X-9.3560 Y53.9587 F80.00
G01 X-9.3721 Y53.9435 F80.00
G01 X-9.3856 Y53.9293 F80.00
G01 X-9.3995 Y53.9133 F80.00
G01 X-9.4128 Y53.8964 F80.00
G01 X-9.4356 Y53.8623 F80.00
G01 X-9.4458 Y53.8444 F80.00
G01 X-9.4553 Y53.8256 F80.00
G01 X-9.4645 Y53.8050 F80.00
G01 X-9.4722 Y53.7849 F80.00
G01 X-9.4786 Y53.7651 F80.00
G01 X-9.4842 Y53.7450 F80.00
G01 X-9.4884 Y53.7259 F80.00
G01 X-9.4922 Y53.7040 F80.00
G01 X-9.4960 Y53.6649 F80.00
G01 X-9.4966 Y53.6429 F80.00
G01 X-9.4961 Y50.6232 F80.00
G00 Z1.9990
G00 X-7.2177 Y52.4966
G01 F80.00
G01 Z-0.1493
G01 F80.00
G01 X-6.6004 Y52.4966 F80.00
G01 X-6.4661 Y52.5637 F80.00
G01 X-6.4209 Y52.6090 F80.00
G01 X-6.3538 Y52.7432 F80.00
G01 X-6.3538 Y52.9711 F80.00
G01 X-6.4209 Y53.1053 F80.00
G01 X-6.4661 Y53.1506 F80.00
G01 X-6.6004 Y53.2177 F80.00
G01 X-7.2177 Y53.2177 F80.00
G01 X-7.2177 Y52.4966 F80.00
G00 Z1.9990
G00 X-14.7818 Y50.6232
G01 F80.00
G01 Z-0.1493
G01 F80.00
G01 X-14.7801 Y50.6000 F80.00
G01 X-14.7741 Y50.5599 F80.00
G01 X-14.7693 Y50.5384 F80.00
G01 X-14.7579 Y50.5008 F80.00
G01 X-14.7495 Y50.4790 F80.00
G01 X-14.7327 Y50.4435 F80.00
G01 X-14.7212 Y50.4232 F80.00
G01 X-14.6985 Y50.3894 F80.00
G01 X-14.6730 Y50.3582 F80.00
G01 X-14.6578 Y50.3422 F80.00
G01 X-14.6418 Y50.3270 F80.00
G01 X-14.6106 Y50.3015 F80.00
G01 X-14.5768 Y50.2788 F80.00
G01 X-14.5565 Y50.2673 F80.00
G01 X-14.5210 Y50.2505 F80.00
G01 X-14.4992 Y50.2421 F80.00
G01 X-14.4616 Y50.2307 F80.00
G01 X-14.4389 Y50.2256 F80.00
G01 X-14.3997 Y50.2198 F80.00
G01 X-14.3792 Y50.2183 F80.00
G01 X-14.3584 Y50.2177 F80.00
G01 X-14.3351 Y50.2183 F80.00
G01 X-14.2960 Y50.2221 F80.00
G01 X-14.2730 Y50.2261 F80.00
G01 X-14.2349 Y50.2356 F80.00
G01 X-14.2128 Y50.2430 F80.00
G01 X-14.1765 Y50.2580 F80.00
G01 X-14.1556 Y50.2685 F80.00
G01 X-14.1219 Y50.2887 F80.00
G01 X-14.1029 Y50.3021 F80.00
G01 X-14.0725 Y50.3270 F80.00
G01 X-14.0556 Y50.3431 F80.00
G01 X-14.0291 Y50.3724 F80.00
G01 X-14.0149 Y50.3906 F80.00
G01 X-13.9930 Y50.4234 F80.00
G01 X-13.9816 Y50.4435 F80.00
G01 X-13.9641 Y50.4807 F80.00
G01 X-13.9506 Y50.5183 F80.00
G01 X-13.9444 Y50.5407 F80.00
G01 X-13.9368 Y50.5793 F80.00
G01 X-13.9339 Y50.6024 F80.00
G01 X-13.9320 Y50.6429 F80.00
G01 X-13.9320 Y51.6530 F80.00
G01 X-12.9830 Y50.3877 F80.00
G01 X-12.9693 Y50.3704 F80.00
G01 X-12.9428 Y50.3415 F80.00
G01 X-12.9276 Y50.3271 F80.00
G01 X-12.9099 Y50.3120 F80.00
G01 X-12.8947 Y50.3003 F80.00
G01 X-12.8761 Y50.2874 F80.00
G01 X-12.8584 Y50.2764 F80.00
G01 X-12.8402 Y50.2662 F80.00
G01 X-12.8215 Y50.2570 F80.00
G01 X-12.8023 Y50.2487 F80.00
G01 X-12.7828 Y50.2414 F80.00
G01 X-12.7629 Y50.2350 F80.00
G01 X-12.7428 Y50.2296 F80.00
G01 X-12.7042 Y50.2221 F80.00
G01 X-12.6833 Y50.2196 F80.00
G01 X-12.6627 Y50.2181 F80.00
G01 X-12.6408 Y50.2177 F80.00
G01 X-12.6209 Y50.2182 F80.00
G01 X-12.6001 Y50.2198 F80.00
G01 X-12.5794 Y50.2224 F80.00
G01 X-12.5589 Y50.2261 F80.00
G01 X-12.5385 Y50.2307 F80.00
G01 X-12.5182 Y50.2364 F80.00
G01 X-12.4986 Y50.2429 F80.00
G01 X-12.4789 Y50.2506 F80.00
G01 X-12.4583 Y50.2598 F80.00
G01 X-12.4234 Y50.2787 F80.00
G01 X-12.4058 Y50.2899 F80.00
G01 X-12.3886 Y50.3020 F80.00
G01 X-12.3723 Y50.3149 F80.00
G01 X-12.3565 Y50.3285 F80.00
G01 X-12.3415 Y50.3430 F80.00
G01 X-12.3271 Y50.3581 F80.00
G01 X-12.3120 Y50.3759 F80.00
G01 X-12.2993 Y50.3924 F80.00
G01 X-12.2776 Y50.4252 F80.00
G01 X-12.2662 Y50.4455 F80.00
G01 X-12.2496 Y50.4811 F80.00
G01 X-12.2414 Y50.5029 F80.00
G01 X-12.2302 Y50.5406 F80.00
G01 X-12.2252 Y50.5634 F80.00
G01 X-12.2218 Y50.5839 F80.00
G01 X-12.2181 Y50.6230 F80.00
G01 X-12.2177 Y50.6449 F80.00
G01 X-12.2184 Y50.6672 F80.00
G01 X-12.2224 Y50.7063 F80.00
G01 X-12.2266 Y50.7292 F80.00
G01 X-12.2364 Y50.7675 F80.00
G01 X-12.2437 Y50.7894 F80.00
G01 X-12.2590 Y50.8256 F80.00
G01 X-12.2696 Y50.8464 F80.00
G01 X-12.2899 Y50.8799 F80.00
G01 X-12.3027 Y50.8980 F80.00
G01 X-13.3672 Y52.3172 F80.00
G01 X-12.3422 Y53.3422 F80.00
G01 X-12.3270 Y53.3582 F80.00
G01 X-12.3021 Y53.3886 F80.00
G01 X-12.2887 Y53.4077 F80.00
G01 X-12.2775 Y53.4253 F80.00
G01 X-12.2673 Y53.4435 F80.00
G01 X-12.2580 Y53.4622 F80.00
G01 X-12.2498 Y53.4807 F80.00
G01 X-12.2421 Y53.5008 F80.00
G01 X-12.2356 Y53.5206 F80.00
G01 X-12.2301 Y53.5407 F80.00
G01 X-12.2225 Y53.5793 F80.00
G01 X-12.2198 Y53.6003 F80.00
G01 X-12.2183 Y53.6208 F80.00
G01 X-12.2177 Y53.6441 F80.00
G01 X-12.2183 Y53.6649 F80.00
G01 X-12.2199 Y53.6858 F80.00
G01 X-12.2258 Y53.7259 F80.00
G01 X-12.2356 Y53.7651 F80.00
G01 X-12.2421 Y53.7849 F80.00
G01 X-12.2498 Y53.8050 F80.00
G01 X-12.2673 Y53.8422 F80.00
G01 X-12.2775 Y53.8604 F80.00
G01 X-12.2887 Y53.8781 F80.00
G01 X-12.3021 Y53.8971 F80.00
G01 X-12.3150 Y53.9135 F80.00
G01 X-12.3286 Y53.9293 F80.00
G01 X-12.3422 Y53.9435 F80.00
G01 X-12.3582 Y53.9587 F80.00
G01 X-12.3724 Y53.9709 F80.00
G01 X-12.3906 Y53.9851 F80.00
G01 X-12.4234 Y54.0070 F80.00
G01 X-12.4435 Y54.0184 F80.00
G01 X-12.4807 Y54.0359 F80.00
G01 X-12.5183 Y54.0494 F80.00
G01 X-12.5407 Y54.0556 F80.00
G01 X-12.5793 Y54.0632 F80.00
G01 X-12.6024 Y54.0661 F80.00
G01 X-12.6416 Y54.0680 F80.00
G01 X-12.6625 Y54.0676 F80.00
G01 X-12.6833 Y54.0661 F80.00
G01 X-12.7065 Y54.0632 F80.00
G01 X-12.7450 Y54.0556 F80.00
G01 X-12.7675 Y54.0494 F80.00
G01 X-12.8044 Y54.0361 F80.00
G01 X-12.8256 Y54.0267 F80.00
G01 X-12.8604 Y54.0082 F80.00
G01 X-12.8801 Y53.9957 F80.00
G01 X-12.8964 Y53.9842 F80.00
G01 X-12.9135 Y53.9707 F80.00
G01 X-12.9435 Y53.9435 F80.00
G01 X-13.9320 Y52.9551 F80.00
G01 X-13.9320 Y53.6429 F80.00
G01 X-13.9325 Y53.6649 F80.00
G01 X-13.9341 Y53.6858 F80.00
G01 X-13.9399 Y53.7246 F80.00
G01 X-13.9450 Y53.7474 F80.00
G01 X-13.9564 Y53.7849 F80.00
G01 X-13.9641 Y53.8050 F80.00
G01 X-13.9733 Y53.8256 F80.00
G01 X-13.9918 Y53.8604 F80.00
G01 X-14.0043 Y53.8801 F80.00
G01 X-14.0277 Y53.9116 F80.00
G01 X-14.0413 Y53.9275 F80.00
G01 X-14.0565 Y53.9435 F80.00
G01 X-14.0725 Y53.9587 F80.00
G01 X-14.0884 Y53.9723 F80.00
G01 X-14.1199 Y53.9957 F80.00
G01 X-14.1375 Y54.0069 F80.00
G01 X-14.1556 Y54.0172 F80.00
G01 X-14.1744 Y54.0267 F80.00
G01 X-14.1950 Y54.0359 F80.00
G01 X-14.2151 Y54.0436 F80.00
G01 X-14.2349 Y54.0501 F80.00
G01 X-14.2730 Y54.0596 F80.00
G01 X-14.2935 Y54.0632 F80.00
G01 X-14.3145 Y54.0659 F80.00
G01 X-14.3375 Y54.0676 F80.00
G01 X-14.3584 Y54.0680 F80.00
G01 X-14.3792 Y54.0675 F80.00
G01 X-14.4000 Y54.0659 F80.00
G01 X-14.4389 Y54.0601 F80.00
G01 X-14.4593 Y54.0556 F80.00
G01 X-14.4817 Y54.0494 F80.00
G01 X-14.5015 Y54.0428 F80.00
G01 X-14.5210 Y54.0352 F80.00
G01 X-14.5565 Y54.0184 F80.00
G01 X-14.5747 Y54.0082 F80.00
G01 X-14.5944 Y53.9957 F80.00
G01 X-14.6106 Y53.9842 F80.00
G01 X-14.6278 Y53.9707 F80.00
G01 X-14.6569 Y53.9444 F80.00
G01 X-14.6714 Y53.9293 F80.00
G01 X-14.6852 Y53.9133 F80.00
G01 X-14.6994 Y53.8951 F80.00
G01 X-14.7213 Y53.8623 F80.00
G01 X-14.7327 Y53.8422 F80.00
G01 X-14.7495 Y53.8067 F80.00
G01 X-14.7579 Y53.7849 F80.00
G01 X-14.7693 Y53.7474 F80.00
G01 X-14.7741 Y53.7259 F80.00
G01 X-14.7801 Y53.6858 F80.00
G01 X-14.7819 Y53.6625 F80.00
G01 X-14.7818 Y50.6232 F80.00
G00 Z1.9990
G00 X-16.2328 Y51.9252
G01 F80.00
G01 Z-0.1493
G01 F80.00
G01 X-16.3571 Y52.2983 F80.00
G01 X-16.4815 Y51.9252 F80.00
G01 X-16.2328 Y51.9252 F80.00
G00 Z1.9990
G00 X-17.7813 Y50.6139
G01 F80.00
G01 Z-0.1493
G01 F80.00
G01 X-17.7794 Y50.5932 F80.00
G01 X-17.7765 Y50.5725 F80.00
G01 X-17.7725 Y50.5518 F80.00
G01 X-17.7669 Y50.5294 F80.00
G01 X-17.7608 Y50.5094 F80.00
G01 X-17.7468 Y50.4727 F80.00
G01 X-17.7380 Y50.4538 F80.00
G01 X-17.7282 Y50.4354 F80.00
G01 X-17.7176 Y50.4174 F80.00
G01 X-17.7061 Y50.4000 F80.00
G01 X-17.6935 Y50.3828 F80.00
G01 X-17.6790 Y50.3651 F80.00
G01 X-17.6650 Y50.3496 F80.00
G01 X-17.6503 Y50.3349 F80.00
G01 X-17.6348 Y50.3209 F80.00
G01 X-17.6039 Y50.2966 F80.00
G01 X-17.5861 Y50.2846 F80.00
G01 X-17.5688 Y50.2741 F80.00
G01 X-17.5491 Y50.2635 F80.00
G01 X-17.5294 Y50.2541 F80.00
G01 X-17.4928 Y50.2399 F80.00
G01 X-17.4728 Y50.2337 F80.00
G01 X-17.4526 Y50.2285 F80.00
G01 X-17.4321 Y50.2243 F80.00
G01 X-17.4115 Y50.2212 F80.00
G01 X-17.3908 Y50.2190 F80.00
G01 X-17.3675 Y50.2178 F80.00
G01 X-17.3466 Y50.2178 F80.00
G01 X-17.3258 Y50.2188 F80.00
G01 X-17.3050 Y50.2209 F80.00
G01 X-17.2663 Y50.2275 F80.00
G01 X-17.2460 Y50.2325 F80.00
G01 X-17.2260 Y50.2384 F80.00
G01 X-17.2045 Y50.2460 F80.00
G01 X-17.1681 Y50.2620 F80.00
G01 X-17.1496 Y50.2718 F80.00
G01 X-17.1317 Y50.2824 F80.00
G01 X-17.1143 Y50.2939 F80.00
G01 X-17.0971 Y50.3065 F80.00
G01 X-17.0656 Y50.3334 F80.00
G01 X-17.0508 Y50.3480 F80.00
G01 X-17.0367 Y50.3634 F80.00
G01 X-17.0234 Y50.3794 F80.00
G01 X-17.0109 Y50.3961 F80.00
G01 X-16.9989 Y50.4139 F80.00
G01 X-16.9884 Y50.4312 F80.00
G01 X-16.9777 Y50.4509 F80.00
G01 X-16.9694 Y50.4684 F80.00
G01 X-16.9610 Y50.4883 F80.00
G01 X-16.9542 Y50.5072 F80.00
G01 X-16.7650 Y51.0748 F80.00
G01 X-15.9493 Y51.0748 F80.00
G01 X-15.7605 Y50.5084 F80.00
G01 X-15.7532 Y50.4883 F80.00
G01 X-15.7449 Y50.4684 F80.00
G01 X-15.7271 Y50.4334 F80.00
G01 X-15.7151 Y50.4134 F80.00
G01 X-15.6923 Y50.3812 F80.00
G01 X-15.6775 Y50.3634 F80.00
G01 X-15.6504 Y50.3350 F80.00
G01 X-15.6331 Y50.3194 F80.00
G01 X-15.6020 Y50.2953 F80.00
G01 X-15.5826 Y50.2824 F80.00
G01 X-15.5646 Y50.2718 F80.00
G01 X-15.5295 Y50.2542 F80.00
G01 X-15.5098 Y50.2460 F80.00
G01 X-15.4906 Y50.2392 F80.00
G01 X-15.4706 Y50.2331 F80.00
G01 X-15.4482 Y50.2275 F80.00
G01 X-15.4275 Y50.2235 F80.00
G01 X-15.4068 Y50.2206 F80.00
G01 X-15.3861 Y50.2187 F80.00
G01 X-15.3653 Y50.2178 F80.00
G01 X-15.3443 Y50.2179 F80.00
G01 X-15.3235 Y50.2190 F80.00
G01 X-15.3027 Y50.2212 F80.00
G01 X-15.2821 Y50.2244 F80.00
G01 X-15.2617 Y50.2285 F80.00
G01 X-15.2239 Y50.2391 F80.00
G01 X-15.2026 Y50.2468 F80.00
G01 X-15.1827 Y50.2551 F80.00
G01 X-15.1652 Y50.2635 F80.00
G01 X-15.1455 Y50.2741 F80.00
G01 X-15.1277 Y50.2849 F80.00
G01 X-15.1104 Y50.2966 F80.00
G01 X-15.0937 Y50.3091 F80.00
G01 X-15.0776 Y50.3225 F80.00
G01 X-15.0623 Y50.3366 F80.00
G01 X-15.0476 Y50.3514 F80.00
G01 X-15.0337 Y50.3669 F80.00
G01 X-15.0205 Y50.3831 F80.00
G01 X-15.0082 Y50.4000 F80.00
G01 X-14.9967 Y50.4174 F80.00
G01 X-14.9860 Y50.4354 F80.00
G01 X-14.9685 Y50.4705 F80.00
G01 X-14.9603 Y50.4902 F80.00
G01 X-14.9535 Y50.5094 F80.00
G01 X-14.9467 Y50.5317 F80.00
G01 X-14.9418 Y50.5518 F80.00
G01 X-14.9378 Y50.5725 F80.00
G01 X-14.9331 Y50.6115 F80.00
G01 X-14.9320 Y50.6348 F80.00
G01 X-14.9322 Y50.6557 F80.00
G01 X-14.9333 Y50.6765 F80.00
G01 X-14.9355 Y50.6973 F80.00
G01 X-14.9386 Y50.7178 F80.00
G01 X-14.9428 Y50.7383 F80.00
G01 X-14.9480 Y50.7585 F80.00
G01 X-15.9538 Y53.7773 F80.00
G01 X-15.9610 Y53.7974 F80.00
G01 X-15.9694 Y53.8172 F80.00
G01 X-15.9777 Y53.8347 F80.00
G01 X-15.9883 Y53.8543 F80.00
G01 X-15.9991 Y53.8721 F80.00
G01 X-16.0107 Y53.8894 F80.00
G01 X-16.0232 Y53.9061 F80.00
G01 X-16.0365 Y53.9221 F80.00
G01 X-16.0506 Y53.9375 F80.00
G01 X-16.0654 Y53.9521 F80.00
G01 X-16.0809 Y53.9660 F80.00
G01 X-16.0970 Y53.9792 F80.00
G01 X-16.1138 Y53.9915 F80.00
G01 X-16.1469 Y54.0124 F80.00
G01 X-16.1664 Y54.0229 F80.00
G01 X-16.1841 Y54.0312 F80.00
G01 X-16.2036 Y54.0393 F80.00
G01 X-16.2229 Y54.0463 F80.00
G01 X-16.2428 Y54.0524 F80.00
G01 X-16.2630 Y54.0575 F80.00
G01 X-16.2834 Y54.0616 F80.00
G01 X-16.3046 Y54.0648 F80.00
G01 X-16.3455 Y54.0679 F80.00
G01 X-16.3663 Y54.0679 F80.00
G01 X-16.3877 Y54.0669 F80.00
G01 X-16.4285 Y54.0620 F80.00
G01 X-16.4490 Y54.0580 F80.00
G01 X-16.4697 Y54.0529 F80.00
G01 X-16.5087 Y54.0401 F80.00
G01 X-16.5280 Y54.0322 F80.00
G01 X-16.5479 Y54.0229 F80.00
G01 X-16.5831 Y54.0030 F80.00
G01 X-16.6005 Y53.9915 F80.00
G01 X-16.6175 Y53.9790 F80.00
G01 X-16.6490 Y53.9521 F80.00
G01 X-16.6637 Y53.9375 F80.00
G01 X-16.6778 Y53.9221 F80.00
G01 X-16.6911 Y53.9061 F80.00
G01 X-16.7035 Y53.8894 F80.00
G01 X-16.7155 Y53.8717 F80.00
G01 X-16.7260 Y53.8543 F80.00
G01 X-16.7366 Y53.8347 F80.00
G01 X-16.7449 Y53.8172 F80.00
G01 X-16.7533 Y53.7974 F80.00
G01 X-16.7605 Y53.7773 F80.00
G01 X-17.7605 Y50.7773 F80.00
G01 X-17.7715 Y50.7383 F80.00
G01 X-17.7757 Y50.7178 F80.00
G01 X-17.7788 Y50.6973 F80.00
G01 X-17.7810 Y50.6765 F80.00
G01 X-17.7821 Y50.6557 F80.00
G01 X-17.7822 Y50.6347 F80.00
G01 X-17.7813 Y50.6139 F80.00
G00 Z1.9990
G00 X-19.5034 Y51.0680
G01 F80.00
G01 Z-0.1493
G01 F80.00
G01 X-19.2833 Y51.0680 F80.00
G01 X-19.0154 Y51.1573 F80.00
G01 X-18.8494 Y51.3233 F80.00
G01 X-18.7583 Y51.5055 F80.00
G01 X-18.6395 Y51.9809 F80.00
G01 X-18.6395 Y52.3048 F80.00
G01 X-18.7583 Y52.7802 F80.00
G01 X-18.8494 Y52.9624 F80.00
G01 X-19.0154 Y53.1284 F80.00
G01 X-19.2833 Y53.2177 F80.00
G01 X-19.5034 Y53.2177 F80.00
G01 X-19.5034 Y51.0680 F80.00
G00 Z1.9990
G00 X-20.3533 Y50.6232
G01 F80.00
G01 Z-0.1493
G01 F80.00
G01 X-20.3516 Y50.6000 F80.00
G01 X-20.3456 Y50.5599 F80.00
G01 X-20.3407 Y50.5384 F80.00
G01 X-20.3293 Y50.5008 F80.00
G01 X-20.3209 Y50.4790 F80.00
G01 X-20.3041 Y50.4435 F80.00
G01 X-20.2926 Y50.4232 F80.00
G01 X-20.2699 Y50.3894 F80.00
G01 X-20.2444 Y50.3582 F80.00
G01 X-20.2292 Y50.3422 F80.00
G01 X-20.2132 Y50.3270 F80.00
G01 X-20.1821 Y50.3015 F80.00
G01 X-20.1482 Y50.2788 F80.00
G01 X-20.1279 Y50.2673 F80.00
G01 X-20.0924 Y50.2505 F80.00
G01 X-20.0707 Y50.2421 F80.00
G01 X-20.0331 Y50.2307 F80.00
G01 X-20.0116 Y50.2259 F80.00
G01 X-19.9715 Y50.2199 F80.00
G01 X-19.9482 Y50.2181 F80.00
G01 X-19.2143 Y50.2177 F80.00
G01 X-19.1741 Y50.2196 F80.00
G01 X-19.1547 Y50.2219 F80.00
G01 X-19.1185 Y50.2286 F80.00
G01 X-19.0798 Y50.2395 F80.00
G01 X-18.6500 Y50.3828 F80.00
G01 X-18.6303 Y50.3899 F80.00
G01 X-18.6093 Y50.3989 F80.00
G01 X-18.5913 Y50.4076 F80.00
G01 X-18.5705 Y50.4191 F80.00
G01 X-18.5519 Y50.4306 F80.00
G01 X-18.5344 Y50.4427 F80.00
G01 X-18.5166 Y50.4566 F80.00
G01 X-18.5000 Y50.4709 F80.00
G01 X-18.1993 Y50.7708 F80.00
G01 X-18.1738 Y50.7988 F80.00
G01 X-18.1608 Y50.8151 F80.00
G01 X-18.1394 Y50.8462 F80.00
G01 X-18.1283 Y50.8650 F80.00
G01 X-17.9768 Y51.1670 F80.00
G01 X-17.9665 Y51.1893 F80.00
G01 X-17.9588 Y51.2084 F80.00
G01 X-17.9513 Y51.2303 F80.00
G01 X-17.9446 Y51.2540 F80.00
G01 X-17.7975 Y51.8446 F80.00
G01 X-17.7939 Y51.8651 F80.00
G01 X-17.7912 Y51.8860 F80.00
G01 X-17.7897 Y51.9065 F80.00
G01 X-17.7891 Y51.9286 F80.00
G01 X-17.7891 Y52.3571 F80.00
G01 X-17.7910 Y52.3975 F80.00
G01 X-17.7939 Y52.4206 F80.00
G01 X-17.8018 Y52.4603 F80.00
G01 X-17.9446 Y53.0317 F80.00
G01 X-17.9513 Y53.0554 F80.00
G01 X-17.9588 Y53.0773 F80.00
G01 X-17.9665 Y53.0964 F80.00
G01 X-17.9768 Y53.1187 F80.00
G01 X-18.1283 Y53.4207 F80.00
G01 X-18.1394 Y53.4395 F80.00
G01 X-18.1602 Y53.4698 F80.00
G01 X-18.1738 Y53.4869 F80.00
G01 X-18.1866 Y53.5016 F80.00
G01 X-18.1993 Y53.5149 F80.00
G01 X-18.4851 Y53.8007 F80.00
G01 X-18.5019 Y53.8166 F80.00
G01 X-18.5186 Y53.8308 F80.00
G01 X-18.5344 Y53.8430 F80.00
G01 X-18.5540 Y53.8565 F80.00
G01 X-18.5710 Y53.8670 F80.00
G01 X-18.5896 Y53.8773 F80.00
G01 X-18.6117 Y53.8879 F80.00
G01 X-18.6303 Y53.8958 F80.00
G01 X-18.6513 Y53.9034 F80.00
G01 X-19.0798 Y54.0462 F80.00
G01 X-19.1167 Y54.0567 F80.00
G01 X-19.1547 Y54.0638 F80.00
G01 X-19.1764 Y54.0663 F80.00
G01 X-19.2143 Y54.0680 F80.00
G01 X-19.9298 Y54.0680 F80.00
G01 X-19.9690 Y54.0661 F80.00
G01 X-19.9922 Y54.0632 F80.00
G01 X-20.0127 Y54.0596 F80.00
G01 X-20.0508 Y54.0501 F80.00
G01 X-20.0730 Y54.0428 F80.00
G01 X-20.0924 Y54.0352 F80.00
G01 X-20.1279 Y54.0184 F80.00
G01 X-20.1482 Y54.0069 F80.00
G01 X-20.1658 Y53.9957 F80.00
G01 X-20.1973 Y53.9723 F80.00
G01 X-20.2150 Y53.9571 F80.00
G01 X-20.2301 Y53.9426 F80.00
G01 X-20.2565 Y53.9135 F80.00
G01 X-20.2699 Y53.8964 F80.00
G01 X-20.2828 Y53.8781 F80.00
G01 X-20.3030 Y53.8444 F80.00
G01 X-20.3125 Y53.8256 F80.00
G01 X-20.3218 Y53.8044 F80.00
G01 X-20.3351 Y53.7675 F80.00
G01 X-20.3407 Y53.7474 F80.00
G01 X-20.3456 Y53.7259 F80.00
G01 X-20.3493 Y53.7040 F80.00
G01 X-20.3518 Y53.6833 F80.00
G01 X-20.3537 Y53.6441 F80.00
G01 X-20.3533 Y50.6232 F80.00
G00 Z1.9990
G00 X-31.5937 Y47.9110
G01 F80.00
G01 Z-0.1493
G01 F80.00
G01 X-31.5894 Y47.8535 F80.00
G01 X-31.5826 Y47.7987 F80.00
G01 X-31.5734 Y47.7455 F80.00
G01 X-31.5610 Y47.6905 F80.00
G01 X-31.5462 Y47.6373 F80.00
G01 X-31.5296 Y47.5872 F80.00
G01 X-31.5089 Y47.5334 F80.00
G01 X-31.4865 Y47.4830 F80.00
G01 X-31.4627 Y47.4358 F80.00
G01 X-31.4343 Y47.3856 F80.00
G01 X-31.4047 Y47.3390 F80.00
G01 X-31.3734 Y47.2946 F80.00
G01 X-31.3404 Y47.2523 F80.00
G01 X-31.3044 Y47.2104 F80.00
G01 X-31.2655 Y47.1695 F80.00
G01 X-31.2246 Y47.1306 F80.00
G01 X-31.1844 Y47.0960 F80.00
G01 X-31.1404 Y47.0616 F80.00
G01 X-31.0940 Y47.0289 F80.00
G01 X-31.0492 Y47.0006 F80.00
G01 X-31.0014 Y46.9734 F80.00
G01 X-30.9499 Y46.9475 F80.00
G01 X-30.9000 Y46.9254 F80.00
G01 X-30.8502 Y46.9062 F80.00
G01 X-30.7954 Y46.8881 F80.00
G01 X-30.7422 Y46.8734 F80.00
G01 X-30.6895 Y46.8616 F80.00
G01 X-30.6363 Y46.8524 F80.00
G01 X-30.5815 Y46.8456 F80.00
G01 X-30.5240 Y46.8413 F80.00
G01 X-30.4700 Y46.8400 F80.00
G01 X-28.6188 Y46.8400 F80.00
G01 X-28.5636 Y46.8414 F80.00
G01 X-28.5085 Y46.8456 F80.00
G01 X-28.4537 Y46.8524 F80.00
G01 X-28.4005 Y46.8616 F80.00
G01 X-28.3478 Y46.8734 F80.00
G01 X-28.2946 Y46.8881 F80.00
G01 X-28.2422 Y46.9054 F80.00
G01 X-28.1900 Y46.9254 F80.00
G01 X-28.1380 Y46.9485 F80.00
G01 X-28.0908 Y46.9723 F80.00
G01 X-28.0427 Y46.9994 F80.00
G01 X-27.9960 Y47.0289 F80.00
G01 X-27.9496 Y47.0616 F80.00
G01 X-27.9073 Y47.0946 F80.00
G01 X-27.8654 Y47.1306 F80.00
G01 X-27.8245 Y47.1695 F80.00
G01 X-27.7873 Y47.2086 F80.00
G01 X-27.7510 Y47.2506 F80.00
G01 X-27.7166 Y47.2946 F80.00
G01 X-27.6839 Y47.3410 F80.00
G01 X-27.6556 Y47.3858 F80.00
G01 X-27.6273 Y47.4358 F80.00
G01 X-27.6035 Y47.4830 F80.00
G01 X-27.5804 Y47.5350 F80.00
G01 X-27.5604 Y47.5872 F80.00
G01 X-27.5431 Y47.6396 F80.00
G01 X-27.5284 Y47.6928 F80.00
G01 X-27.5166 Y47.7455 F80.00
G01 X-27.5074 Y47.7987 F80.00
G01 X-27.5005 Y47.8538 F80.00
G01 X-27.4963 Y47.9110 F80.00
G01 X-27.4950 Y47.9662 F80.00
G01 X-27.4964 Y48.0214 F80.00
G01 X-27.5003 Y48.0740 F80.00
G01 X-27.5074 Y48.1313 F80.00
G01 X-27.5166 Y48.1845 F80.00
G01 X-27.5284 Y48.2372 F80.00
G01 X-27.5438 Y48.2927 F80.00
G01 X-27.5612 Y48.3452 F80.00
G01 X-27.5802 Y48.3944 F80.00
G01 X-27.6035 Y48.4470 F80.00
G01 X-27.6273 Y48.4942 F80.00
G01 X-27.6544 Y48.5423 F80.00
G01 X-27.6853 Y48.5910 F80.00
G01 X-27.7166 Y48.6354 F80.00
G01 X-27.7496 Y48.6777 F80.00
G01 X-27.7873 Y48.7214 F80.00
G01 X-27.8245 Y48.7605 F80.00
G01 X-27.8636 Y48.7977 F80.00
G01 X-27.9073 Y48.8354 F80.00
G01 X-27.9496 Y48.8684 F80.00
G01 X-27.9960 Y48.9011 F80.00
G01 X-28.0408 Y48.9294 F80.00
G01 X-28.0886 Y48.9566 F80.00
G01 X-28.1401 Y48.9825 F80.00
G01 X-28.1900 Y49.0046 F80.00
G01 X-28.2398 Y49.0238 F80.00
G01 X-28.2946 Y49.0419 F80.00
G01 X-28.3478 Y49.0566 F80.00
G01 X-28.4005 Y49.0684 F80.00
G01 X-28.4537 Y49.0776 F80.00
G01 X-28.5085 Y49.0844 F80.00
G01 X-28.5660 Y49.0887 F80.00
G01 X-28.6200 Y49.0900 F80.00
G01 X-30.4712 Y49.0900 F80.00
G01 X-30.5264 Y49.0886 F80.00
G01 X-30.5815 Y49.0844 F80.00
G01 X-30.6363 Y49.0776 F80.00
G01 X-30.6895 Y49.0684 F80.00
G01 X-30.7422 Y49.0566 F80.00
G01 X-30.7954 Y49.0419 F80.00
G01 X-30.8478 Y49.0246 F80.00
G01 X-30.9000 Y49.0046 F80.00
G01 X-30.9499 Y48.9825 F80.00
G01 X-30.9992 Y48.9577 F80.00
G01 X-31.0473 Y48.9306 F80.00
G01 X-31.0940 Y48.9011 F80.00
G01 X-31.1404 Y48.8684 F80.00
G01 X-31.1827 Y48.8354 F80.00
G01 X-31.2246 Y48.7994 F80.00
G01 X-31.2655 Y48.7605 F80.00
G01 X-31.3027 Y48.7214 F80.00
G01 X-31.3390 Y48.6794 F80.00
G01 X-31.3734 Y48.6354 F80.00
G01 X-31.4047 Y48.5910 F80.00
G01 X-31.4344 Y48.5442 F80.00
G01 X-31.4616 Y48.4964 F80.00
G01 X-31.4865 Y48.4470 F80.00
G01 X-31.5096 Y48.3950 F80.00
G01 X-31.5288 Y48.3452 F80.00
G01 X-31.5462 Y48.2927 F80.00
G01 X-31.5610 Y48.2395 F80.00
G01 X-31.5734 Y48.1845 F80.00
G01 X-31.5826 Y48.1313 F80.00
G01 X-31.5895 Y48.0762 F80.00
G01 X-31.5936 Y48.0214 F80.00
G01 X-31.5950 Y47.9650 F80.00
G01 X-31.5937 Y47.9110 F80.00
G00 Z1.9990
G00 X-31.5937 Y45.3710
G01 F80.00
G01 Z-0.1493
G01 F80.00
G01 X-31.5894 Y45.3135 F80.00
G01 X-31.5826 Y45.2587 F80.00
G01 X-31.5734 Y45.2055 F80.00
G01 X-31.5610 Y45.1505 F80.00
G01 X-31.5462 Y45.0973 F80.00
G01 X-31.5296 Y45.0472 F80.00
G01 X-31.5089 Y44.9934 F80.00
G01 X-31.4865 Y44.9430 F80.00
G01 X-31.4627 Y44.8958 F80.00
G01 X-31.4343 Y44.8456 F80.00
G01 X-31.4047 Y44.7990 F80.00
G01 X-31.3734 Y44.7546 F80.00
G01 X-31.3404 Y44.7123 F80.00
G01 X-31.3044 Y44.6704 F80.00
G01 X-31.2655 Y44.6295 F80.00
G01 X-31.2246 Y44.5906 F80.00
G01 X-31.1844 Y44.5560 F80.00
G01 X-31.1404 Y44.5216 F80.00
G01 X-31.0940 Y44.4889 F80.00
G01 X-31.0492 Y44.4606 F80.00
G01 X-31.0014 Y44.4334 F80.00
G01 X-30.9499 Y44.4075 F80.00
G01 X-30.9000 Y44.3854 F80.00
G01 X-30.8502 Y44.3662 F80.00
G01 X-30.7954 Y44.3481 F80.00
G01 X-30.7422 Y44.3334 F80.00
G01 X-30.6895 Y44.3216 F80.00
G01 X-30.6363 Y44.3124 F80.00
G01 X-30.5815 Y44.3056 F80.00
G01 X-30.5240 Y44.3013 F80.00
G01 X-30.4700 Y44.3000 F80.00
G01 X-28.6188 Y44.3000 F80.00
G01 X-28.5636 Y44.3014 F80.00
G01 X-28.5085 Y44.3056 F80.00
G01 X-28.4537 Y44.3124 F80.00
G01 X-28.4005 Y44.3216 F80.00
G01 X-28.3478 Y44.3334 F80.00
G01 X-28.2946 Y44.3481 F80.00
G01 X-28.2422 Y44.3654 F80.00
G01 X-28.1900 Y44.3854 F80.00
G01 X-28.1380 Y44.4085 F80.00
G01 X-28.0908 Y44.4323 F80.00
G01 X-28.0427 Y44.4594 F80.00
G01 X-27.9960 Y44.4889 F80.00
G01 X-27.9496 Y44.5216 F80.00
G01 X-27.9073 Y44.5546 F80.00
G01 X-27.8654 Y44.5906 F80.00
G01 X-27.8245 Y44.6295 F80.00
G01 X-27.7873 Y44.6686 F80.00
G01 X-27.7510 Y44.7106 F80.00
G01 X-27.7166 Y44.7546 F80.00
G01 X-27.6839 Y44.8010 F80.00
G01 X-27.6556 Y44.8458 F80.00
G01 X-27.6273 Y44.8958 F80.00
G01 X-27.6035 Y44.9430 F80.00
G01 X-27.5804 Y44.9950 F80.00
G01 X-27.5604 Y45.0472 F80.00
G01 X-27.5431 Y45.0996 F80.00
G01 X-27.5284 Y45.1528 F80.00
G01 X-27.5166 Y45.2055 F80.00
G01 X-27.5074 Y45.2587 F80.00
G01 X-27.5005 Y45.3138 F80.00
G01 X-27.4963 Y45.3710 F80.00
G01 X-27.4950 Y45.4262 F80.00
G01 X-27.4964 Y45.4814 F80.00
G01 X-27.5003 Y45.5340 F80.00
G01 X-27.5074 Y45.5913 F80.00
G01 X-27.5166 Y45.6445 F80.00
G01 X-27.5284 Y45.6972 F80.00
G01 X-27.5438 Y45.7527 F80.00
G01 X-27.5612 Y45.8052 F80.00
G01 X-27.5802 Y45.8544 F80.00
G01 X-27.6035 Y45.9070 F80.00
G01 X-27.6273 Y45.9542 F80.00
G01 X-27.6544 Y46.0023 F80.00
G01 X-27.6853 Y46.0510 F80.00
G01 X-27.7166 Y46.0954 F80.00
G01 X-27.7496 Y46.1377 F80.00
G01 X-27.7873 Y46.1814 F80.00
G01 X-27.8245 Y46.2205 F80.00
G01 X-27.8636 Y46.2577 F80.00
G01 X-27.9073 Y46.2954 F80.00
G01 X-27.9496 Y46.3284 F80.00
G01 X-27.9960 Y46.3611 F80.00
G01 X-28.0408 Y46.3894 F80.00
G01 X-28.0886 Y46.4166 F80.00
G01 X-28.1401 Y46.4425 F80.00
G01 X-28.1900 Y46.4646 F80.00
G01 X-28.2398 Y46.4838 F80.00
G01 X-28.2946 Y46.5019 F80.00
G01 X-28.3478 Y46.5166 F80.00
G01 X-28.4005 Y46.5284 F80.00
G01 X-28.4537 Y46.5376 F80.00
G01 X-28.5085 Y46.5444 F80.00
G01 X-28.5660 Y46.5487 F80.00
G01 X-28.6200 Y46.5500 F80.00
G01 X-30.4712 Y46.5500 F80.00
G01 X-30.5264 Y46.5486 F80.00
G01 X-30.5815 Y46.5444 F80.00
G01 X-30.6363 Y46.5376 F80.00
G01 X-30.6895 Y46.5284 F80.00
G01 X-30.7422 Y46.5166 F80.00
G01 X-30.7954 Y46.5019 F80.00
G01 X-30.8478 Y46.4846 F80.00
G01 X-30.9000 Y46.4646 F80.00
G01 X-30.9499 Y46.4425 F80.00
G01 X-30.9992 Y46.4177 F80.00
G01 X-31.0473 Y46.3906 F80.00
G01 X-31.0940 Y46.3611 F80.00
G01 X-31.1404 Y46.3284 F80.00
G01 X-31.1827 Y46.2954 F80.00
G01 X-31.2246 Y46.2594 F80.00
G01 X-31.2655 Y46.2205 F80.00
G01 X-31.3027 Y46.1814 F80.00
G01 X-31.3390 Y46.1394 F80.00
G01 X-31.3734 Y46.0954 F80.00
G01 X-31.4047 Y46.0510 F80.00
G01 X-31.4344 Y46.0042 F80.00
G01 X-31.4616 Y45.9564 F80.00
G01 X-31.4865 Y45.9070 F80.00
G01 X-31.5096 Y45.8550 F80.00
G01 X-31.5288 Y45.8052 F80.00
G01 X-31.5462 Y45.7527 F80.00
G01 X-31.5610 Y45.6995 F80.00
G01 X-31.5734 Y45.6445 F80.00
G01 X-31.5826 Y45.5913 F80.00
G01 X-31.5895 Y45.5362 F80.00
G01 X-31.5936 Y45.4814 F80.00
G01 X-31.5950 Y45.4250 F80.00
G01 X-31.5937 Y45.3710 F80.00
G00 Z1.9990
G00 X-31.5937 Y42.8310
G01 F80.00
G01 Z-0.1493
G01 F80.00
G01 X-31.5894 Y42.7735 F80.00
G01 X-31.5826 Y42.7187 F80.00
G01 X-31.5734 Y42.6655 F80.00
G01 X-31.5610 Y42.6105 F80.00
G01 X-31.5462 Y42.5573 F80.00
G01 X-31.5296 Y42.5072 F80.00
G01 X-31.5089 Y42.4534 F80.00
G01 X-31.4865 Y42.4030 F80.00
G01 X-31.4627 Y42.3558 F80.00
G01 X-31.4343 Y42.3056 F80.00
G01 X-31.4047 Y42.2590 F80.00
G01 X-31.3734 Y42.2146 F80.00
G01 X-31.3404 Y42.1723 F80.00
G01 X-31.3044 Y42.1304 F80.00
G01 X-31.2655 Y42.0895 F80.00
G01 X-31.2246 Y42.0506 F80.00
G01 X-31.1844 Y42.0160 F80.00
G01 X-31.1404 Y41.9816 F80.00
G01 X-31.0940 Y41.9489 F80.00
G01 X-31.0492 Y41.9206 F80.00
G01 X-31.0014 Y41.8934 F80.00
G01 X-30.9499 Y41.8675 F80.00
G01 X-30.9000 Y41.8454 F80.00
G01 X-30.8502 Y41.8262 F80.00
G01 X-30.7954 Y41.8081 F80.00
G01 X-30.7422 Y41.7934 F80.00
G01 X-30.6895 Y41.7816 F80.00
G01 X-30.6363 Y41.7724 F80.00
G01 X-30.5815 Y41.7656 F80.00
G01 X-30.5240 Y41.7613 F80.00
G01 X-30.4700 Y41.7600 F80.00
G01 X-28.6188 Y41.7600 F80.00
G01 X-28.5636 Y41.7614 F80.00
G01 X-28.5085 Y41.7656 F80.00
G01 X-28.4537 Y41.7724 F80.00
G01 X-28.4005 Y41.7816 F80.00
G01 X-28.3478 Y41.7934 F80.00
G01 X-28.2946 Y41.8081 F80.00
G01 X-28.2422 Y41.8254 F80.00
G01 X-28.1900 Y41.8454 F80.00
G01 X-28.1380 Y41.8685 F80.00
G01 X-28.0908 Y41.8923 F80.00
G01 X-28.0427 Y41.9194 F80.00
G01 X-27.9960 Y41.9489 F80.00
G01 X-27.9496 Y41.9816 F80.00
G01 X-27.9073 Y42.0146 F80.00
G01 X-27.8654 Y42.0506 F80.00
G01 X-27.8245 Y42.0895 F80.00
G01 X-27.7873 Y42.1286 F80.00
G01 X-27.7510 Y42.1706 F80.00
G01 X-27.7166 Y42.2146 F80.00
G01 X-27.6839 Y42.2610 F80.00
G01 X-27.6556 Y42.3058 F80.00
G01 X-27.6273 Y42.3558 F80.00
G01 X-27.6035 Y42.4030 F80.00
G01 X-27.5804 Y42.4550 F80.00
G01 X-27.5604 Y42.5072 F80.00
G01 X-27.5431 Y42.5596 F80.00
G01 X-27.5284 Y42.6128 F80.00
G01 X-27.5166 Y42.6655 F80.00
G01 X-27.5074 Y42.7187 F80.00
G01 X-27.5005 Y42.7738 F80.00
G01 X-27.4963 Y42.8310 F80.00
G01 X-27.4950 Y42.8862 F80.00
G01 X-27.4964 Y42.9414 F80.00
G01 X-27.5003 Y42.9940 F80.00
G01 X-27.5074 Y43.0513 F80.00
G01 X-27.5166 Y43.1045 F80.00
G01 X-27.5284 Y43.1572 F80.00
G01 X-27.5438 Y43.2127 F80.00
G01 X-27.5612 Y43.2652 F80.00
G01 X-27.5802 Y43.3144 F80.00
G01 X-27.6035 Y43.3670 F80.00
G01 X-27.6273 Y43.4142 F80.00
G01 X-27.6544 Y43.4623 F80.00
G01 X-27.6853 Y43.5110 F80.00
G01 X-27.7166 Y43.5554 F80.00
G01 X-27.7496 Y43.5977 F80.00
G01 X-27.7873 Y43.6414 F80.00
G01 X-27.8245 Y43.6805 F80.00
G01 X-27.8636 Y43.7177 F80.00
G01 X-27.9073 Y43.7554 F80.00
G01 X-27.9496 Y43.7884 F80.00
G01 X-27.9960 Y43.8211 F80.00
G01 X-28.0408 Y43.8494 F80.00
G01 X-28.0886 Y43.8766 F80.00
G01 X-28.1401 Y43.9025 F80.00
G01 X-28.1900 Y43.9246 F80.00
G01 X-28.2398 Y43.9438 F80.00
G01 X-28.2946 Y43.9619 F80.00
G01 X-28.3478 Y43.9766 F80.00
G01 X-28.4005 Y43.9884 F80.00
G01 X-28.4537 Y43.9976 F80.00
G01 X-28.5085 Y44.0044 F80.00
G01 X-28.5660 Y44.0087 F80.00
G01 X-28.6200 Y44.0100 F80.00
G01 X-30.4712 Y44.0100 F80.00
G01 X-30.5264 Y44.0086 F80.00
G01 X-30.5815 Y44.0044 F80.00
G01 X-30.6363 Y43.9976 F80.00
G01 X-30.6895 Y43.9884 F80.00
G01 X-30.7422 Y43.9766 F80.00
G01 X-30.7954 Y43.9619 F80.00
G01 X-30.8478 Y43.9446 F80.00
G01 X-30.9000 Y43.9246 F80.00
G01 X-30.9499 Y43.9025 F80.00
G01 X-30.9992 Y43.8777 F80.00
G01 X-31.0473 Y43.8506 F80.00
G01 X-31.0940 Y43.8211 F80.00
G01 X-31.1404 Y43.7884 F80.00
G01 X-31.1827 Y43.7554 F80.00
G01 X-31.2246 Y43.7194 F80.00
G01 X-31.2655 Y43.6805 F80.00
G01 X-31.3027 Y43.6414 F80.00
G01 X-31.3390 Y43.5994 F80.00
G01 X-31.3734 Y43.5554 F80.00
G01 X-31.4047 Y43.5110 F80.00
G01 X-31.4344 Y43.4642 F80.00
G01 X-31.4616 Y43.4164 F80.00
G01 X-31.4865 Y43.3670 F80.00
G01 X-31.5096 Y43.3150 F80.00
G01 X-31.5288 Y43.2652 F80.00
G01 X-31.5462 Y43.2127 F80.00
G01 X-31.5610 Y43.1595 F80.00
G01 X-31.5734 Y43.1045 F80.00
G01 X-31.5826 Y43.0513 F80.00
G01 X-31.5895 Y42.9962 F80.00
G01 X-31.5936 Y42.9414 F80.00
G01 X-31.5950 Y42.8850 F80.00
G01 X-31.5937 Y42.8310 F80.00
G00 Z1.9990
G00 X-31.5937 Y40.2910
G01 F80.00
G01 Z-0.1493
G01 F80.00
G01 X-31.5894 Y40.2335 F80.00
G01 X-31.5826 Y40.1787 F80.00
G01 X-31.5731 Y40.1243 F80.00
G01 X-31.5610 Y40.0705 F80.00
G01 X-31.5462 Y40.0173 F80.00
G01 X-31.5288 Y39.9648 F80.00
G01 X-31.5096 Y39.9150 F80.00
G01 X-31.4865 Y39.8630 F80.00
G01 X-31.4627 Y39.8158 F80.00
G01 X-31.4343 Y39.7656 F80.00
G01 X-31.4047 Y39.7190 F80.00
G01 X-31.3734 Y39.6746 F80.00
G01 X-31.3404 Y39.6323 F80.00
G01 X-31.3044 Y39.5904 F80.00
G01 X-31.2655 Y39.5495 F80.00
G01 X-31.2264 Y39.5123 F80.00
G01 X-31.1827 Y39.4746 F80.00
G01 X-31.1404 Y39.4416 F80.00
G01 X-31.0940 Y39.4089 F80.00
G01 X-31.0492 Y39.3806 F80.00
G01 X-31.0014 Y39.3534 F80.00
G01 X-30.9499 Y39.3275 F80.00
G01 X-30.9000 Y39.3054 F80.00
G01 X-30.8478 Y39.2854 F80.00
G01 X-30.7954 Y39.2681 F80.00
G01 X-30.7422 Y39.2534 F80.00
G01 X-30.6895 Y39.2416 F80.00
G01 X-30.6339 Y39.2320 F80.00
G01 X-30.5812 Y39.2255 F80.00
G01 X-30.5264 Y39.2214 F80.00
G01 X-30.4700 Y39.2200 F80.00
G01 X-28.6200 Y39.2200 F80.00
G01 X-28.5660 Y39.2213 F80.00
G01 X-28.5110 Y39.2253 F80.00
G01 X-28.4537 Y39.2324 F80.00
G01 X-28.4005 Y39.2416 F80.00
G01 X-28.3478 Y39.2534 F80.00
G01 X-28.2923 Y39.2688 F80.00
G01 X-28.2398 Y39.2862 F80.00
G01 X-28.1900 Y39.3054 F80.00
G01 X-28.1379 Y39.3286 F80.00
G01 X-28.0886 Y39.3534 F80.00
G01 X-28.0427 Y39.3794 F80.00
G01 X-27.9940 Y39.4103 F80.00
G01 X-27.9496 Y39.4416 F80.00
G01 X-27.9187 Y39.4656 F80.00
G01 X-25.5470 Y39.4656 F80.00
G01 X-25.5470 Y39.2898 F80.00
G01 X-25.5456 Y39.2346 F80.00
G01 X-25.5417 Y39.1820 F80.00
G01 X-25.5346 Y39.1247 F80.00
G01 X-25.5254 Y39.0715 F80.00
G01 X-25.5130 Y39.0165 F80.00
G01 X-25.4982 Y38.9633 F80.00
G01 X-25.4808 Y38.9108 F80.00
G01 X-25.4616 Y38.8610 F80.00
G01 X-25.4385 Y38.8090 F80.00
G01 X-25.4136 Y38.7596 F80.00
G01 X-25.3863 Y38.7116 F80.00
G01 X-25.3567 Y38.6650 F80.00
G01 X-25.3254 Y38.6206 F80.00
G01 X-25.2924 Y38.5783 F80.00
G01 X-25.2564 Y38.5364 F80.00
G01 X-25.2175 Y38.4955 F80.00
G01 X-25.1784 Y38.4583 F80.00
G01 X-25.1364 Y38.4220 F80.00
G01 X-25.0924 Y38.3876 F80.00
G01 X-25.0480 Y38.3563 F80.00
G01 X-25.0012 Y38.3266 F80.00
G01 X-24.9534 Y38.2994 F80.00
G01 X-24.9040 Y38.2745 F80.00
G01 X-24.8520 Y38.2514 F80.00
G01 X-24.7998 Y38.2314 F80.00
G01 X-24.7474 Y38.2141 F80.00
G01 X-24.6942 Y38.1994 F80.00
G01 X-24.6415 Y38.1876 F80.00
G01 X-24.5859 Y38.1780 F80.00
G01 X-24.5332 Y38.1715 F80.00
G01 X-24.4760 Y38.1673 F80.00
G01 X-24.4220 Y38.1660 F80.00
G01 X-24.3656 Y38.1674 F80.00
G01 X-24.3105 Y38.1716 F80.00
G01 X-24.2557 Y38.1784 F80.00
G01 X-24.2025 Y38.1876 F80.00
G01 X-24.1475 Y38.2000 F80.00
G01 X-24.0943 Y38.2148 F80.00
G01 X-24.0418 Y38.2322 F80.00
G01 X-23.9920 Y38.2514 F80.00
G01 X-23.9400 Y38.2745 F80.00
G01 X-23.8906 Y38.2994 F80.00
G01 X-23.8426 Y38.3267 F80.00
G01 X-23.7960 Y38.3563 F80.00
G01 X-23.7516 Y38.3876 F80.00
G01 X-23.7093 Y38.4206 F80.00
G01 X-23.6674 Y38.4566 F80.00
G01 X-23.6265 Y38.4955 F80.00
G01 X-23.5893 Y38.5346 F80.00
G01 X-23.5530 Y38.5766 F80.00
G01 X-23.5186 Y38.6206 F80.00
G01 X-23.4873 Y38.6650 F80.00
G01 X-23.4576 Y38.7118 F80.00
G01 X-23.4304 Y38.7596 F80.00
G01 X-23.4055 Y38.8090 F80.00
G01 X-23.3824 Y38.8610 F80.00
G01 X-23.3624 Y38.9132 F80.00
G01 X-23.3451 Y38.9656 F80.00
G01 X-23.3304 Y39.0188 F80.00
G01 X-23.3186 Y39.0715 F80.00
G01 X-23.3090 Y39.1271 F80.00
G01 X-23.3025 Y39.1798 F80.00
G01 X-23.2984 Y39.2346 F80.00
G01 X-23.2970 Y39.2910 F80.00
G01 X-23.2970 Y41.1422 F80.00
G01 X-23.2984 Y41.1974 F80.00
G01 X-23.3023 Y41.2500 F80.00
G01 X-23.3094 Y41.3073 F80.00
G01 X-23.3186 Y41.3605 F80.00
G01 X-23.3304 Y41.4132 F80.00
G01 X-23.3458 Y41.4687 F80.00
G01 X-23.3632 Y41.5212 F80.00
G01 X-23.3822 Y41.5704 F80.00
G01 X-23.4055 Y41.6230 F80.00
G01 X-23.4293 Y41.6702 F80.00
G01 X-23.4564 Y41.7183 F80.00
G01 X-23.4873 Y41.7670 F80.00
G01 X-23.5186 Y41.8114 F80.00
G01 X-23.5516 Y41.8537 F80.00
G01 X-23.5893 Y41.8974 F80.00
G01 X-23.6265 Y41.9365 F80.00
G01 X-23.6656 Y41.9737 F80.00
G01 X-23.7074 Y42.0098 F80.00
G01 X-23.7528 Y42.0453 F80.00
G01 X-23.7980 Y42.0771 F80.00
G01 X-23.8426 Y42.1053 F80.00
G01 X-23.8906 Y42.1326 F80.00
G01 X-23.9421 Y42.1585 F80.00
G01 X-23.9920 Y42.1806 F80.00
G01 X-24.0418 Y42.1998 F80.00
G01 X-24.0966 Y42.2179 F80.00
G01 X-24.1498 Y42.2326 F80.00
G01 X-24.2013 Y42.2441 F80.00
G01 X-24.2581 Y42.2540 F80.00
G01 X-24.3108 Y42.2605 F80.00
G01 X-24.3680 Y42.2647 F80.00
G01 X-24.4232 Y42.2660 F80.00
G01 X-24.4784 Y42.2646 F80.00
G01 X-24.5310 Y42.2607 F80.00
G01 X-24.5883 Y42.2536 F80.00
G01 X-24.6427 Y42.2441 F80.00
G01 X-24.6965 Y42.2320 F80.00
G01 X-24.7497 Y42.2172 F80.00
G01 X-24.7998 Y42.2006 F80.00
G01 X-24.8520 Y42.1806 F80.00
G01 X-24.9040 Y42.1575 F80.00
G01 X-24.9534 Y42.1326 F80.00
G01 X-25.0014 Y42.1053 F80.00
G01 X-25.0480 Y42.0757 F80.00
G01 X-25.0924 Y42.0444 F80.00
G01 X-25.1347 Y42.0114 F80.00
G01 X-25.1766 Y41.9754 F80.00
G01 X-25.2175 Y41.9365 F80.00
G01 X-25.2564 Y41.8956 F80.00
G01 X-25.2924 Y41.8537 F80.00
G01 X-25.3254 Y41.8114 F80.00
G01 X-25.3567 Y41.7670 F80.00
G01 X-25.3863 Y41.7204 F80.00
G01 X-25.4136 Y41.6724 F80.00
G01 X-25.4385 Y41.6230 F80.00
G01 X-25.4616 Y41.5710 F80.00
G01 X-25.4816 Y41.5188 F80.00
G01 X-25.4989 Y41.4664 F80.00
G01 X-25.5130 Y41.4155 F80.00
G01 X-25.5251 Y41.3617 F80.00
G01 X-25.5346 Y41.3073 F80.00
G01 X-25.5415 Y41.2522 F80.00
G01 X-25.5456 Y41.1974 F80.00
G01 X-25.5470 Y41.1422 F80.00
G01 X-25.5470 Y40.9664 F80.00
G01 X-27.6823 Y40.9664 F80.00
G01 X-27.7166 Y41.0154 F80.00
G01 X-27.7496 Y41.0577 F80.00
G01 X-27.7856 Y41.0996 F80.00
G01 X-27.8245 Y41.1405 F80.00
G01 X-27.8636 Y41.1777 F80.00
G01 X-27.9056 Y41.2140 F80.00
G01 X-27.9496 Y41.2484 F80.00
G01 X-27.9960 Y41.2811 F80.00
G01 X-28.0408 Y41.3094 F80.00
G01 X-28.0908 Y41.3377 F80.00
G01 X-28.1401 Y41.3625 F80.00
G01 X-28.1900 Y41.3846 F80.00
G01 X-28.2398 Y41.4038 F80.00
G01 X-28.2923 Y41.4212 F80.00
G01 X-28.3455 Y41.4360 F80.00
G01 X-28.4005 Y41.4484 F80.00
G01 X-28.4537 Y41.4576 F80.00
G01 X-28.5110 Y41.4647 F80.00
G01 X-28.5660 Y41.4687 F80.00
G01 X-28.6200 Y41.4700 F80.00
G01 X-30.4700 Y41.4700 F80.00
G01 X-30.5264 Y41.4686 F80.00
G01 X-30.5815 Y41.4644 F80.00
G01 X-30.6363 Y41.4576 F80.00
G01 X-30.6895 Y41.4484 F80.00
G01 X-30.7445 Y41.4360 F80.00
G01 X-30.7977 Y41.4212 F80.00
G01 X-30.8502 Y41.4038 F80.00
G01 X-30.9000 Y41.3846 F80.00
G01 X-30.9520 Y41.3615 F80.00
G01 X-31.0014 Y41.3366 F80.00
G01 X-31.0494 Y41.3093 F80.00
G01 X-31.0960 Y41.2797 F80.00
G01 X-31.1404 Y41.2484 F80.00
G01 X-31.1846 Y41.2138 F80.00
G01 X-31.2264 Y41.1777 F80.00
G01 X-31.2655 Y41.1405 F80.00
G01 X-31.3027 Y41.1014 F80.00
G01 X-31.3388 Y41.0596 F80.00
G01 X-31.3734 Y41.0154 F80.00
G01 X-31.4047 Y40.9710 F80.00
G01 X-31.4344 Y40.9242 F80.00
G01 X-31.4616 Y40.8764 F80.00
G01 X-31.4875 Y40.8249 F80.00
G01 X-31.5096 Y40.7750 F80.00
G01 X-31.5296 Y40.7228 F80.00
G01 X-31.5469 Y40.6704 F80.00
G01 X-31.5616 Y40.6172 F80.00
G01 X-31.5734 Y40.5645 F80.00
G01 X-31.5830 Y40.5089 F80.00
G01 X-31.5895 Y40.4562 F80.00
G01 X-31.5937 Y40.3990 F80.00
G01 X-31.5950 Y40.3450 F80.00
G01 X-31.5937 Y40.2910 F80.00
G00 Z1.9990
G00 X-31.5937 Y37.7510
G01 F80.00
G01 Z-0.1493
G01 F80.00
G01 X-31.5894 Y37.6935 F80.00
G01 X-31.5826 Y37.6387 F80.00
G01 X-31.5734 Y37.5855 F80.00
G01 X-31.5610 Y37.5305 F80.00
G01 X-31.5462 Y37.4773 F80.00
G01 X-31.5296 Y37.4272 F80.00
G01 X-31.5089 Y37.3734 F80.00
G01 X-31.4865 Y37.3230 F80.00
G01 X-31.4627 Y37.2758 F80.00
G01 X-31.4343 Y37.2256 F80.00
G01 X-31.4047 Y37.1790 F80.00
G01 X-31.3734 Y37.1346 F80.00
G01 X-31.3404 Y37.0923 F80.00
G01 X-31.3044 Y37.0504 F80.00
G01 X-31.2655 Y37.0095 F80.00
G01 X-31.2246 Y36.9706 F80.00
G01 X-31.1844 Y36.9360 F80.00
G01 X-31.1404 Y36.9016 F80.00
G01 X-31.0940 Y36.8689 F80.00
G01 X-31.0492 Y36.8406 F80.00
G01 X-31.0014 Y36.8134 F80.00
G01 X-30.9499 Y36.7875 F80.00
G01 X-30.9000 Y36.7654 F80.00
G01 X-30.8502 Y36.7462 F80.00
G01 X-30.7954 Y36.7281 F80.00
G01 X-30.7422 Y36.7134 F80.00
G01 X-30.6895 Y36.7016 F80.00
G01 X-30.6363 Y36.6924 F80.00
G01 X-30.5815 Y36.6856 F80.00
G01 X-30.5240 Y36.6813 F80.00
G01 X-30.4700 Y36.6800 F80.00
G01 X-28.6188 Y36.6800 F80.00
G01 X-28.5636 Y36.6814 F80.00
G01 X-28.5085 Y36.6856 F80.00
G01 X-28.4537 Y36.6924 F80.00
G01 X-28.4005 Y36.7016 F80.00
G01 X-28.3478 Y36.7134 F80.00
G01 X-28.2946 Y36.7281 F80.00
G01 X-28.2422 Y36.7454 F80.00
G01 X-28.1900 Y36.7654 F80.00
G01 X-28.1380 Y36.7885 F80.00
G01 X-28.0908 Y36.8123 F80.00
G01 X-28.0427 Y36.8394 F80.00
G01 X-27.9960 Y36.8689 F80.00
G01 X-27.9496 Y36.9016 F80.00
G01 X-27.9073 Y36.9346 F80.00
G01 X-27.8654 Y36.9706 F80.00
G01 X-27.8245 Y37.0095 F80.00
G01 X-27.7873 Y37.0486 F80.00
G01 X-27.7510 Y37.0906 F80.00
G01 X-27.7166 Y37.1346 F80.00
G01 X-27.6839 Y37.1810 F80.00
G01 X-27.6556 Y37.2258 F80.00
G01 X-27.6273 Y37.2758 F80.00
G01 X-27.6035 Y37.3230 F80.00
G01 X-27.5804 Y37.3750 F80.00
G01 X-27.5604 Y37.4272 F80.00
G01 X-27.5431 Y37.4796 F80.00
G01 X-27.5284 Y37.5328 F80.00
G01 X-27.5166 Y37.5855 F80.00
G01 X-27.5074 Y37.6387 F80.00
G01 X-27.5005 Y37.6938 F80.00
G01 X-27.4963 Y37.7510 F80.00
G01 X-27.4950 Y37.8062 F80.00
G01 X-27.4964 Y37.8614 F80.00
G01 X-27.5003 Y37.9140 F80.00
G01 X-27.5074 Y37.9713 F80.00
G01 X-27.5166 Y38.0245 F80.00
G01 X-27.5284 Y38.0772 F80.00
G01 X-27.5438 Y38.1327 F80.00
G01 X-27.5612 Y38.1852 F80.00
G01 X-27.5802 Y38.2344 F80.00
G01 X-27.6035 Y38.2870 F80.00
G01 X-27.6273 Y38.3342 F80.00
G01 X-27.6544 Y38.3823 F80.00
G01 X-27.6853 Y38.4310 F80.00
G01 X-27.7166 Y38.4754 F80.00
G01 X-27.7496 Y38.5177 F80.00
G01 X-27.7873 Y38.5614 F80.00
G01 X-27.8245 Y38.6005 F80.00
G01 X-27.8636 Y38.6377 F80.00
G01 X-27.9073 Y38.6754 F80.00
G01 X-27.9496 Y38.7084 F80.00
G01 X-27.9960 Y38.7411 F80.00
G01 X-28.0408 Y38.7694 F80.00
G01 X-28.0886 Y38.7966 F80.00
G01 X-28.1401 Y38.8225 F80.00
G01 X-28.1900 Y38.8446 F80.00
G01 X-28.2398 Y38.8638 F80.00
G01 X-28.2946 Y38.8819 F80.00
G01 X-28.3478 Y38.8966 F80.00
G01 X-28.4005 Y38.9084 F80.00
G01 X-28.4537 Y38.9176 F80.00
G01 X-28.5085 Y38.9244 F80.00
G01 X-28.5660 Y38.9287 F80.00
G01 X-28.6200 Y38.9300 F80.00
G01 X-30.4712 Y38.9300 F80.00
G01 X-30.5264 Y38.9286 F80.00
G01 X-30.5815 Y38.9244 F80.00
G01 X-30.6363 Y38.9176 F80.00
G01 X-30.6895 Y38.9084 F80.00
G01 X-30.7422 Y38.8966 F80.00
G01 X-30.7954 Y38.8819 F80.00
G01 X-30.8478 Y38.8646 F80.00
G01 X-30.9000 Y38.8446 F80.00
G01 X-30.9499 Y38.8225 F80.00
G01 X-30.9992 Y38.7977 F80.00
G01 X-31.0473 Y38.7706 F80.00
G01 X-31.0940 Y38.7411 F80.00
G01 X-31.1404 Y38.7084 F80.00
G01 X-31.1827 Y38.6754 F80.00
G01 X-31.2246 Y38.6394 F80.00
G01 X-31.2655 Y38.6005 F80.00
G01 X-31.3027 Y38.5614 F80.00
G01 X-31.3390 Y38.5194 F80.00
G01 X-31.3734 Y38.4754 F80.00
G01 X-31.4047 Y38.4310 F80.00
G01 X-31.4344 Y38.3842 F80.00
G01 X-31.4616 Y38.3364 F80.00
G01 X-31.4865 Y38.2870 F80.00
G01 X-31.5096 Y38.2350 F80.00
G01 X-31.5288 Y38.1852 F80.00
G01 X-31.5462 Y38.1327 F80.00
G01 X-31.5610 Y38.0795 F80.00
G01 X-31.5734 Y38.0245 F80.00
G01 X-31.5826 Y37.9713 F80.00
G01 X-31.5895 Y37.9162 F80.00
G01 X-31.5936 Y37.8614 F80.00
G01 X-31.5950 Y37.8050 F80.00
G01 X-31.5937 Y37.7510 F80.00
G00 Z1.9990
G00 X-31.5937 Y35.2110
G01 F80.00
G01 Z-0.1493
G01 F80.00
G01 X-31.5894 Y35.1535 F80.00
G01 X-31.5826 Y35.0987 F80.00
G01 X-31.5734 Y35.0455 F80.00
G01 X-31.5610 Y34.9905 F80.00
G01 X-31.5462 Y34.9373 F80.00
G01 X-31.5296 Y34.8872 F80.00
G01 X-31.5089 Y34.8334 F80.00
G01 X-31.4865 Y34.7830 F80.00
G01 X-31.4627 Y34.7358 F80.00
G01 X-31.4343 Y34.6856 F80.00
G01 X-31.4047 Y34.6390 F80.00
G01 X-31.3734 Y34.5946 F80.00
G01 X-31.3404 Y34.5523 F80.00
G01 X-31.3044 Y34.5104 F80.00
G01 X-31.2655 Y34.4695 F80.00
G01 X-31.2246 Y34.4306 F80.00
G01 X-31.1844 Y34.3960 F80.00
G01 X-31.1404 Y34.3616 F80.00
G01 X-31.0940 Y34.3289 F80.00
G01 X-31.0492 Y34.3006 F80.00
G01 X-31.0014 Y34.2734 F80.00
G01 X-30.9499 Y34.2475 F80.00
G01 X-30.9000 Y34.2254 F80.00
G01 X-30.8502 Y34.2062 F80.00
G01 X-30.7954 Y34.1881 F80.00
G01 X-30.7422 Y34.1734 F80.00
G01 X-30.6895 Y34.1616 F80.00
G01 X-30.6363 Y34.1524 F80.00
G01 X-30.5815 Y34.1456 F80.00
G01 X-30.5240 Y34.1413 F80.00
G01 X-30.4700 Y34.1400 F80.00
G01 X-28.6188 Y34.1400 F80.00
G01 X-28.5636 Y34.1414 F80.00
G01 X-28.5085 Y34.1456 F80.00
G01 X-28.4537 Y34.1524 F80.00
G01 X-28.4005 Y34.1616 F80.00
G01 X-28.3478 Y34.1734 F80.00
G01 X-28.2946 Y34.1881 F80.00
G01 X-28.2422 Y34.2054 F80.00
G01 X-28.1900 Y34.2254 F80.00
G01 X-28.1380 Y34.2485 F80.00
G01 X-28.0908 Y34.2723 F80.00
G01 X-28.0427 Y34.2994 F80.00
G01 X-27.9960 Y34.3289 F80.00
G01 X-27.9496 Y34.3616 F80.00
G01 X-27.9073 Y34.3946 F80.00
G01 X-27.8654 Y34.4306 F80.00
G01 X-27.8245 Y34.4695 F80.00
G01 X-27.7873 Y34.5086 F80.00
G01 X-27.7510 Y34.5506 F80.00
G01 X-27.7166 Y34.5946 F80.00
G01 X-27.6839 Y34.6410 F80.00
G01 X-27.6556 Y34.6858 F80.00
G01 X-27.6273 Y34.7358 F80.00
G01 X-27.6035 Y34.7830 F80.00
G01 X-27.5804 Y34.8350 F80.00
G01 X-27.5604 Y34.8872 F80.00
G01 X-27.5431 Y34.9396 F80.00
G01 X-27.5284 Y34.9928 F80.00
G01 X-27.5166 Y35.0455 F80.00
G01 X-27.5074 Y35.0987 F80.00
G01 X-27.5005 Y35.1538 F80.00
G01 X-27.4963 Y35.2110 F80.00
G01 X-27.4950 Y35.2662 F80.00
G01 X-27.4964 Y35.3214 F80.00
G01 X-27.5003 Y35.3740 F80.00
G01 X-27.5074 Y35.4313 F80.00
G01 X-27.5166 Y35.4845 F80.00
G01 X-27.5284 Y35.5372 F80.00
G01 X-27.5438 Y35.5927 F80.00
G01 X-27.5612 Y35.6452 F80.00
G01 X-27.5802 Y35.6944 F80.00
G01 X-27.6035 Y35.7470 F80.00
G01 X-27.6273 Y35.7942 F80.00
G01 X-27.6544 Y35.8423 F80.00
G01 X-27.6853 Y35.8910 F80.00
G01 X-27.7166 Y35.9354 F80.00
G01 X-27.7496 Y35.9777 F80.00
G01 X-27.7873 Y36.0214 F80.00
G01 X-27.8245 Y36.0605 F80.00
G01 X-27.8636 Y36.0977 F80.00
G01 X-27.9073 Y36.1354 F80.00
G01 X-27.9496 Y36.1684 F80.00
G01 X-27.9960 Y36.2011 F80.00
G01 X-28.0408 Y36.2294 F80.00
G01 X-28.0886 Y36.2566 F80.00
G01 X-28.1401 Y36.2825 F80.00
G01 X-28.1900 Y36.3046 F80.00
G01 X-28.2398 Y36.3238 F80.00
G01 X-28.2946 Y36.3419 F80.00
G01 X-28.3478 Y36.3566 F80.00
G01 X-28.4005 Y36.3684 F80.00
G01 X-28.4537 Y36.3776 F80.00
G01 X-28.5085 Y36.3844 F80.00
G01 X-28.5660 Y36.3887 F80.00
G01 X-28.6200 Y36.3900 F80.00
G01 X-30.4712 Y36.3900 F80.00
G01 X-30.5264 Y36.3886 F80.00
G01 X-30.5815 Y36.3844 F80.00
G01 X-30.6363 Y36.3776 F80.00
G01 X-30.6895 Y36.3684 F80.00
G01 X-30.7422 Y36.3566 F80.00
G01 X-30.7954 Y36.3419 F80.00
G01 X-30.8478 Y36.3246 F80.00
G01 X-30.9000 Y36.3046 F80.00
G01 X-30.9499 Y36.2825 F80.00
G01 X-30.9992 Y36.2577 F80.00
G01 X-31.0473 Y36.2306 F80.00
G01 X-31.0940 Y36.2011 F80.00
G01 X-31.1404 Y36.1684 F80.00
G01 X-31.1827 Y36.1354 F80.00
G01 X-31.2246 Y36.0994 F80.00
G01 X-31.2655 Y36.0605 F80.00
G01 X-31.3027 Y36.0214 F80.00
G01 X-31.3390 Y35.9794 F80.00
G01 X-31.3734 Y35.9354 F80.00
G01 X-31.4047 Y35.8910 F80.00
G01 X-31.4344 Y35.8442 F80.00
G01 X-31.4616 Y35.7964 F80.00
G01 X-31.4865 Y35.7470 F80.00
G01 X-31.5096 Y35.6950 F80.00
G01 X-31.5288 Y35.6452 F80.00
G01 X-31.5462 Y35.5927 F80.00
G01 X-31.5610 Y35.5395 F80.00
G01 X-31.5734 Y35.4845 F80.00
G01 X-31.5826 Y35.4313 F80.00
G01 X-31.5895 Y35.3762 F80.00
G01 X-31.5936 Y35.3214 F80.00
G01 X-31.5950 Y35.2650 F80.00
G01 X-31.5937 Y35.2110 F80.00
G00 Z1.9990
G00 X-31.5937 Y32.6710
G01 F80.00
G01 Z-0.1493
G01 F80.00
G01 X-31.5894 Y32.6135 F80.00
G01 X-31.5826 Y32.5587 F80.00
G01 X-31.5734 Y32.5055 F80.00
G01 X-31.5610 Y32.4505 F80.00
G01 X-31.5462 Y32.3973 F80.00
G01 X-31.5296 Y32.3472 F80.00
G01 X-31.5089 Y32.2934 F80.00
G01 X-31.4865 Y32.2430 F80.00
G01 X-31.4627 Y32.1958 F80.00
G01 X-31.4343 Y32.1456 F80.00
G01 X-31.4047 Y32.0990 F80.00
G01 X-31.3734 Y32.0546 F80.00
G01 X-31.3404 Y32.0123 F80.00
G01 X-31.3044 Y31.9704 F80.00
G01 X-31.2655 Y31.9295 F80.00
G01 X-31.2246 Y31.8906 F80.00
G01 X-31.1844 Y31.8560 F80.00
G01 X-31.1404 Y31.8216 F80.00
G01 X-31.0940 Y31.7889 F80.00
G01 X-31.0492 Y31.7606 F80.00
G01 X-31.0014 Y31.7334 F80.00
G01 X-30.9499 Y31.7075 F80.00
G01 X-30.9000 Y31.6854 F80.00
G01 X-30.8502 Y31.6662 F80.00
G01 X-30.7954 Y31.6481 F80.00
G01 X-30.7422 Y31.6334 F80.00
G01 X-30.6895 Y31.6216 F80.00
G01 X-30.6363 Y31.6124 F80.00
G01 X-30.5815 Y31.6056 F80.00
G01 X-30.5240 Y31.6013 F80.00
G01 X-30.4700 Y31.6000 F80.00
G01 X-28.6188 Y31.6000 F80.00
G01 X-28.5636 Y31.6014 F80.00
G01 X-28.5085 Y31.6056 F80.00
G01 X-28.4537 Y31.6124 F80.00
G01 X-28.4005 Y31.6216 F80.00
G01 X-28.3478 Y31.6334 F80.00
G01 X-28.2946 Y31.6481 F80.00
G01 X-28.2422 Y31.6654 F80.00
G01 X-28.1900 Y31.6854 F80.00
G01 X-28.1380 Y31.7085 F80.00
G01 X-28.0908 Y31.7323 F80.00
G01 X-28.0427 Y31.7594 F80.00
G01 X-27.9960 Y31.7889 F80.00
G01 X-27.9496 Y31.8216 F80.00
G01 X-27.9073 Y31.8546 F80.00
G01 X-27.8654 Y31.8906 F80.00
G01 X-27.8245 Y31.9295 F80.00
G01 X-27.7873 Y31.9686 F80.00
G01 X-27.7510 Y32.0106 F80.00
G01 X-27.7166 Y32.0546 F80.00
G01 X-27.6839 Y32.1010 F80.00
G01 X-27.6556 Y32.1458 F80.00
G01 X-27.6273 Y32.1958 F80.00
G01 X-27.6035 Y32.2430 F80.00
G01 X-27.5804 Y32.2950 F80.00
G01 X-27.5604 Y32.3472 F80.00
G01 X-27.5431 Y32.3996 F80.00
G01 X-27.5284 Y32.4528 F80.00
G01 X-27.5166 Y32.5055 F80.00
G01 X-27.5074 Y32.5587 F80.00
G01 X-27.5005 Y32.6138 F80.00
G01 X-27.4963 Y32.6710 F80.00
G01 X-27.4950 Y32.7262 F80.00
G01 X-27.4964 Y32.7814 F80.00
G01 X-27.5003 Y32.8340 F80.00
G01 X-27.5074 Y32.8913 F80.00
G01 X-27.5166 Y32.9445 F80.00
G01 X-27.5284 Y32.9972 F80.00
G01 X-27.5438 Y33.0527 F80.00
G01 X-27.5612 Y33.1052 F80.00
G01 X-27.5802 Y33.1544 F80.00
G01 X-27.6035 Y33.2070 F80.00
G01 X-27.6273 Y33.2542 F80.00
G01 X-27.6544 Y33.3023 F80.00
G01 X-27.6853 Y33.3510 F80.00
G01 X-27.7166 Y33.3954 F80.00
G01 X-27.7496 Y33.4377 F80.00
G01 X-27.7873 Y33.4814 F80.00
G01 X-27.8245 Y33.5205 F80.00
G01 X-27.8636 Y33.5577 F80.00
G01 X-27.9073 Y33.5954 F80.00
G01 X-27.9496 Y33.6284 F80.00
G01 X-27.9960 Y33.6611 F80.00
G01 X-28.0408 Y33.6894 F80.00
G01 X-28.0886 Y33.7166 F80.00
G01 X-28.1401 Y33.7425 F80.00
G01 X-28.1900 Y33.7646 F80.00
G01 X-28.2398 Y33.7838 F80.00
G01 X-28.2946 Y33.8019 F80.00
G01 X-28.3478 Y33.8166 F80.00
G01 X-28.4005 Y33.8284 F80.00
G01 X-28.4537 Y33.8376 F80.00
G01 X-28.5085 Y33.8444 F80.00
G01 X-28.5660 Y33.8487 F80.00
G01 X-28.6200 Y33.8500 F80.00
G01 X-30.4712 Y33.8500 F80.00
G01 X-30.5264 Y33.8486 F80.00
G01 X-30.5815 Y33.8444 F80.00
G01 X-30.6363 Y33.8376 F80.00
G01 X-30.6895 Y33.8284 F80.00
G01 X-30.7422 Y33.8166 F80.00
G01 X-30.7954 Y33.8019 F80.00
G01 X-30.8478 Y33.7846 F80.00
G01 X-30.9000 Y33.7646 F80.00
G01 X-30.9499 Y33.7425 F80.00
G01 X-30.9992 Y33.7177 F80.00
G01 X-31.0473 Y33.6906 F80.00
G01 X-31.0940 Y33.6611 F80.00
G01 X-31.1404 Y33.6284 F80.00
G01 X-31.1827 Y33.5954 F80.00
G01 X-31.2246 Y33.5594 F80.00
G01 X-31.2655 Y33.5205 F80.00
G01 X-31.3027 Y33.4814 F80.00
G01 X-31.3390 Y33.4394 F80.00
G01 X-31.3734 Y33.3954 F80.00
G01 X-31.4047 Y33.3510 F80.00
G01 X-31.4344 Y33.3042 F80.00
G01 X-31.4616 Y33.2564 F80.00
G01 X-31.4865 Y33.2070 F80.00
G01 X-31.5096 Y33.1550 F80.00
G01 X-31.5288 Y33.1052 F80.00
G01 X-31.5462 Y33.0527 F80.00
G01 X-31.5610 Y32.9995 F80.00
G01 X-31.5734 Y32.9445 F80.00
G01 X-31.5826 Y32.8913 F80.00
G01 X-31.5895 Y32.8362 F80.00
G01 X-31.5936 Y32.7814 F80.00
G01 X-31.5950 Y32.7250 F80.00
G01 X-31.5937 Y32.6710 F80.00
G00 Z1.9990
G00 X-31.5937 Y30.1310
G01 F80.00
G01 Z-0.1493
G01 F80.00
G01 X-31.5894 Y30.0735 F80.00
G01 X-31.5826 Y30.0187 F80.00
G01 X-31.5734 Y29.9655 F80.00
G01 X-31.5610 Y29.9105 F80.00
G01 X-31.5462 Y29.8573 F80.00
G01 X-31.5296 Y29.8072 F80.00
G01 X-31.5089 Y29.7534 F80.00
G01 X-31.4865 Y29.7030 F80.00
G01 X-31.4627 Y29.6558 F80.00
G01 X-31.4343 Y29.6056 F80.00
G01 X-31.4047 Y29.5590 F80.00
G01 X-31.3734 Y29.5146 F80.00
G01 X-31.3404 Y29.4723 F80.00
G01 X-31.3044 Y29.4304 F80.00
G01 X-31.2655 Y29.3895 F80.00
G01 X-31.2246 Y29.3506 F80.00
G01 X-31.1844 Y29.3160 F80.00
G01 X-31.1404 Y29.2816 F80.00
G01 X-31.0940 Y29.2489 F80.00
G01 X-31.0492 Y29.2206 F80.00
G01 X-31.0014 Y29.1934 F80.00
G01 X-30.9499 Y29.1675 F80.00
G01 X-30.9000 Y29.1454 F80.00
G01 X-30.8502 Y29.1262 F80.00
G01 X-30.7954 Y29.1081 F80.00
G01 X-30.7422 Y29.0934 F80.00
G01 X-30.6895 Y29.0816 F80.00
G01 X-30.6363 Y29.0724 F80.00
G01 X-30.5815 Y29.0656 F80.00
G01 X-30.5240 Y29.0613 F80.00
G01 X-30.4700 Y29.0600 F80.00
G01 X-28.6188 Y29.0600 F80.00
G01 X-28.5636 Y29.0614 F80.00
G01 X-28.5085 Y29.0656 F80.00
G01 X-28.4537 Y29.0724 F80.00
G01 X-28.4005 Y29.0816 F80.00
G01 X-28.3478 Y29.0934 F80.00
G01 X-28.2946 Y29.1081 F80.00
G01 X-28.2422 Y29.1254 F80.00
G01 X-28.1900 Y29.1454 F80.00
G01 X-28.1380 Y29.1685 F80.00
G01 X-28.0908 Y29.1923 F80.00
G01 X-28.0427 Y29.2194 F80.00
G01 X-27.9960 Y29.2489 F80.00
G01 X-27.9496 Y29.2816 F80.00
G01 X-27.9073 Y29.3146 F80.00
G01 X-27.8654 Y29.3506 F80.00
G01 X-27.8245 Y29.3895 F80.00
G01 X-27.7873 Y29.4286 F80.00
G01 X-27.7510 Y29.4706 F80.00
G01 X-27.7166 Y29.5146 F80.00
G01 X-27.6839 Y29.5610 F80.00
G01 X-27.6556 Y29.6058 F80.00
G01 X-27.6273 Y29.6558 F80.00
G01 X-27.6035 Y29.7030 F80.00
G01 X-27.5804 Y29.7550 F80.00
G01 X-27.5604 Y29.8072 F80.00
G01 X-27.5431 Y29.8596 F80.00
G01 X-27.5284 Y29.9128 F80.00
G01 X-27.5166 Y29.9655 F80.00
G01 X-27.5074 Y30.0187 F80.00
G01 X-27.5005 Y30.0738 F80.00
G01 X-27.4963 Y30.1310 F80.00
G01 X-27.4950 Y30.1862 F80.00
G01 X-27.4964 Y30.2414 F80.00
G01 X-27.5003 Y30.2940 F80.00
G01 X-27.5074 Y30.3513 F80.00
G01 X-27.5166 Y30.4045 F80.00
G01 X-27.5284 Y30.4572 F80.00
G01 X-27.5438 Y30.5127 F80.00
G01 X-27.5612 Y30.5652 F80.00
G01 X-27.5802 Y30.6144 F80.00
G01 X-27.6035 Y30.6670 F80.00
G01 X-27.6273 Y30.7142 F80.00
G01 X-27.6544 Y30.7623 F80.00
G01 X-27.6853 Y30.8110 F80.00
G01 X-27.7166 Y30.8554 F80.00
G01 X-27.7496 Y30.8977 F80.00
G01 X-27.7873 Y30.9414 F80.00
G01 X-27.8245 Y30.9805 F80.00
G01 X-27.8636 Y31.0177 F80.00
G01 X-27.9073 Y31.0554 F80.00
G01 X-27.9496 Y31.0884 F80.00
G01 X-27.9960 Y31.1211 F80.00
G01 X-28.0408 Y31.1494 F80.00
G01 X-28.0886 Y31.1766 F80.00
G01 X-28.1401 Y31.2025 F80.00
G01 X-28.1900 Y31.2246 F80.00
G01 X-28.2398 Y31.2438 F80.00
G01 X-28.2946 Y31.2619 F80.00
G01 X-28.3478 Y31.2766 F80.00
G01 X-28.4005 Y31.2884 F80.00
G01 X-28.4537 Y31.2976 F80.00
G01 X-28.5085 Y31.3044 F80.00
G01 X-28.5660 Y31.3087 F80.00
G01 X-28.6200 Y31.3100 F80.00
G01 X-30.4712 Y31.3100 F80.00
G01 X-30.5264 Y31.3086 F80.00
G01 X-30.5815 Y31.3044 F80.00
G01 X-30.6363 Y31.2976 F80.00
G01 X-30.6895 Y31.2884 F80.00
G01 X-30.7422 Y31.2766 F80.00
G01 X-30.7954 Y31.2619 F80.00
G01 X-30.8478 Y31.2446 F80.00
G01 X-30.9000 Y31.2246 F80.00
G01 X-30.9499 Y31.2025 F80.00
G01 X-30.9992 Y31.1777 F80.00
G01 X-31.0473 Y31.1506 F80.00
G01 X-31.0940 Y31.1211 F80.00
G01 X-31.1404 Y31.0884 F80.00
G01 X-31.1827 Y31.0554 F80.00
G01 X-31.2246 Y31.0194 F80.00
G01 X-31.2655 Y30.9805 F80.00
G01 X-31.3027 Y30.9414 F80.00
G01 X-31.3390 Y30.8994 F80.00
G01 X-31.3734 Y30.8554 F80.00
G01 X-31.4047 Y30.8110 F80.00
G01 X-31.4344 Y30.7642 F80.00
G01 X-31.4616 Y30.7164 F80.00
G01 X-31.4865 Y30.6670 F80.00
G01 X-31.5096 Y30.6150 F80.00
G01 X-31.5288 Y30.5652 F80.00
G01 X-31.5462 Y30.5127 F80.00
G01 X-31.5610 Y30.4595 F80.00
G01 X-31.5734 Y30.4045 F80.00
G01 X-31.5826 Y30.3513 F80.00
G01 X-31.5895 Y30.2962 F80.00
G01 X-31.5936 Y30.2414 F80.00
G01 X-31.5950 Y30.1850 F80.00
G01 X-31.5937 Y30.1310 F80.00
G00 Z1.9990
G00 X-31.5937 Y27.5910
G01 F80.00
G01 Z-0.1493
G01 F80.00
G01 X-31.5894 Y27.5335 F80.00
G01 X-31.5826 Y27.4787 F80.00
G01 X-31.5734 Y27.4255 F80.00
G01 X-31.5610 Y27.3705 F80.00
G01 X-31.5462 Y27.3173 F80.00
G01 X-31.5296 Y27.2672 F80.00
G01 X-31.5089 Y27.2134 F80.00
G01 X-31.4865 Y27.1630 F80.00
G01 X-31.4627 Y27.1158 F80.00
G01 X-31.4343 Y27.0656 F80.00
G01 X-31.4047 Y27.0190 F80.00
G01 X-31.3734 Y26.9746 F80.00
G01 X-31.3404 Y26.9323 F80.00
G01 X-31.3044 Y26.8904 F80.00
G01 X-31.2655 Y26.8495 F80.00
G01 X-31.2246 Y26.8106 F80.00
G01 X-31.1844 Y26.7760 F80.00
G01 X-31.1404 Y26.7416 F80.00
G01 X-31.0940 Y26.7089 F80.00
G01 X-31.0492 Y26.6806 F80.00
G01 X-31.0014 Y26.6534 F80.00
G01 X-30.9499 Y26.6275 F80.00
G01 X-30.9000 Y26.6054 F80.00
G01 X-30.8502 Y26.5862 F80.00
G01 X-30.7954 Y26.5681 F80.00
G01 X-30.7422 Y26.5534 F80.00
G01 X-30.6895 Y26.5416 F80.00
G01 X-30.6363 Y26.5324 F80.00
G01 X-30.5815 Y26.5256 F80.00
G01 X-30.5240 Y26.5213 F80.00
G01 X-30.4700 Y26.5200 F80.00
G01 X-28.6188 Y26.5200 F80.00
G01 X-28.5636 Y26.5214 F80.00
G01 X-28.5085 Y26.5256 F80.00
G01 X-28.4537 Y26.5324 F80.00
G01 X-28.4005 Y26.5416 F80.00
G01 X-28.3478 Y26.5534 F80.00
G01 X-28.2946 Y26.5681 F80.00
G01 X-28.2422 Y26.5854 F80.00
G01 X-28.1900 Y26.6054 F80.00
G01 X-28.1380 Y26.6285 F80.00
G01 X-28.0908 Y26.6523 F80.00
G01 X-28.0427 Y26.6794 F80.00
G01 X-27.9960 Y26.7089 F80.00
G01 X-27.9496 Y26.7416 F80.00
G01 X-27.9073 Y26.7746 F80.00
G01 X-27.8654 Y26.8106 F80.00
G01 X-27.8245 Y26.8495 F80.00
G01 X-27.7873 Y26.8886 F80.00
G01 X-27.7510 Y26.9306 F80.00
G01 X-27.7166 Y26.9746 F80.00
G01 X-27.6839 Y27.0210 F80.00
G01 X-27.6556 Y27.0658 F80.00
G01 X-27.6273 Y27.1158 F80.00
G01 X-27.6035 Y27.1630 F80.00
G01 X-27.5804 Y27.2150 F80.00
G01 X-27.5604 Y27.2672 F80.00
G01 X-27.5431 Y27.3196 F80.00
G01 X-27.5284 Y27.3728 F80.00
G01 X-27.5166 Y27.4255 F80.00
G01 X-27.5074 Y27.4787 F80.00
G01 X-27.5005 Y27.5338 F80.00
G01 X-27.4963 Y27.5910 F80.00
G01 X-27.4950 Y27.6462 F80.00
G01 X-27.4964 Y27.7014 F80.00
G01 X-27.5003 Y27.7540 F80.00
G01 X-27.5074 Y27.8113 F80.00
G01 X-27.5166 Y27.8645 F80.00
G01 X-27.5284 Y27.9172 F80.00
G01 X-27.5438 Y27.9727 F80.00
G01 X-27.5612 Y28.0252 F80.00
G01 X-27.5802 Y28.0744 F80.00
G01 X-27.6035 Y28.1270 F80.00
G01 X-27.6273 Y28.1742 F80.00
G01 X-27.6544 Y28.2223 F80.00
G01 X-27.6853 Y28.2710 F80.00
G01 X-27.7166 Y28.3154 F80.00
G01 X-27.7496 Y28.3577 F80.00
G01 X-27.7873 Y28.4014 F80.00
G01 X-27.8245 Y28.4405 F80.00
G01 X-27.8636 Y28.4777 F80.00
G01 X-27.9073 Y28.5154 F80.00
G01 X-27.9496 Y28.5484 F80.00
G01 X-27.9960 Y28.5811 F80.00
G01 X-28.0408 Y28.6094 F80.00
G01 X-28.0886 Y28.6366 F80.00
G01 X-28.1401 Y28.6625 F80.00
G01 X-28.1900 Y28.6846 F80.00
G01 X-28.2398 Y28.7038 F80.00
G01 X-28.2946 Y28.7219 F80.00
G01 X-28.3478 Y28.7366 F80.00
G01 X-28.4005 Y28.7484 F80.00
G01 X-28.4537 Y28.7576 F80.00
G01 X-28.5085 Y28.7644 F80.00
G01 X-28.5660 Y28.7687 F80.00
G01 X-28.6200 Y28.7700 F80.00
G01 X-30.4712 Y28.7700 F80.00
G01 X-30.5264 Y28.7686 F80.00
G01 X-30.5815 Y28.7644 F80.00
G01 X-30.6363 Y28.7576 F80.00
G01 X-30.6895 Y28.7484 F80.00
G01 X-30.7422 Y28.7366 F80.00
G01 X-30.7954 Y28.7219 F80.00
G01 X-30.8478 Y28.7046 F80.00
G01 X-30.9000 Y28.6846 F80.00
G01 X-30.9499 Y28.6625 F80.00
G01 X-30.9992 Y28.6377 F80.00
G01 X-31.0473 Y28.6106 F80.00
G01 X-31.0940 Y28.5811 F80.00
G01 X-31.1404 Y28.5484 F80.00
G01 X-31.1827 Y28.5154 F80.00
G01 X-31.2246 Y28.4794 F80.00
G01 X-31.2655 Y28.4405 F80.00
G01 X-31.3027 Y28.4014 F80.00
G01 X-31.3390 Y28.3594 F80.00
G01 X-31.3734 Y28.3154 F80.00
G01 X-31.4047 Y28.2710 F80.00
G01 X-31.4344 Y28.2242 F80.00
G01 X-31.4616 Y28.1764 F80.00
G01 X-31.4865 Y28.1270 F80.00
G01 X-31.5096 Y28.0750 F80.00
G01 X-31.5288 Y28.0252 F80.00
G01 X-31.5462 Y27.9727 F80.00
G01 X-31.5610 Y27.9195 F80.00
G01 X-31.5734 Y27.8645 F80.00
G01 X-31.5826 Y27.8113 F80.00
G01 X-31.5895 Y27.7562 F80.00
G01 X-31.5936 Y27.7014 F80.00
G01 X-31.5950 Y27.6450 F80.00
G01 X-31.5937 Y27.5910 F80.00
G00 Z1.9990
G00 X-31.5937 Y25.0510
G01 F80.00
G01 Z-0.1493
G01 F80.00
G01 X-31.5894 Y24.9935 F80.00
G01 X-31.5826 Y24.9387 F80.00
G01 X-31.5734 Y24.8855 F80.00
G01 X-31.5610 Y24.8305 F80.00
G01 X-31.5462 Y24.7773 F80.00
G01 X-31.5296 Y24.7272 F80.00
G01 X-31.5089 Y24.6734 F80.00
G01 X-31.4865 Y24.6230 F80.00
G01 X-31.4627 Y24.5758 F80.00
G01 X-31.4343 Y24.5256 F80.00
G01 X-31.4047 Y24.4790 F80.00
G01 X-31.3734 Y24.4346 F80.00
G01 X-31.3404 Y24.3923 F80.00
G01 X-31.3044 Y24.3504 F80.00
G01 X-31.2655 Y24.3095 F80.00
G01 X-31.2246 Y24.2706 F80.00
G01 X-31.1844 Y24.2360 F80.00
