(G-CODE GENERATED BY FLATCAM v8.96 - www.flatcam.org - Version Date: 2019/08/23)

(Name: big_drills)
(Type: G-code from Excellon)
(Units: MM)

(Created on Tuesday, 19 November 2019 at 13:46)

(Feedrate: 80.0 mm/min)
(Feedrate rapids 800.0009 mm/min)

(Z_Cut: -1.8 mm)
(Z_Move: 2.0 mm)
(Z Toolchange: 12.7 mm)
(X,Y Toolchange: 0.0000, 0.0000 mm)
(Z Start: None mm)
(Z End: 12.7 mm)
(Steps per circle: 128)
(Postprocessor Excellon: grbl_11)
(X range:  -65.6006 ...   -0.2159  mm)
(Y range:    3.4011 ...   53.5991  mm)

(Spindle Speed: 800.0 RPM)


G21
G90
G94
G17

G01 F80.00
G00 Z2.0000

M03 S800.0
G00 X-64.0004 Y51.9989
G01 Z-1.8000
G01 Z0
G00 Z2.0000
G00 X-1.8161 Y5.0013
G01 Z-1.8000
G01 Z0
G00 Z2.0000
M05
G00 Z12.70
G00 X0.0 Y0.0

M02