(G-CODE GENERATED BY FLATCAM v8.96 - www.flatcam.org - Version Date: 2019/08/23)

(Name: edges)
(Type: G-code from Geometry)
(Units: MM)

(Created on Tuesday, 19 November 2019 at 13:46)

(TOOL DIAMETER: 3.17 mm)

(Feedrate: 79.9998 mm/min)
(Feedrate_Z: 79.9998 mm/min)
(Feedrate rapids 79.9998 mm/min)

(Z_Cut: -2.4003 mm)
(Z_Move: 1.999 mm)
(Z Toolchange: 12.7 mm)
(X,Y Toolchange: 0.0000, 0.0000 mm)
(Z Start: None mm)
(Z End: 12.7 mm)
(Steps per circle: 128)
(Postprocessor Geometry: grbl_11)

(X range:  -71.7125 ...    6.7125  mm)
(Y range:   -1.7125 ...   59.7125  mm)

(Spindle Speed: 800 RPM)


G21
G90
G94
G17

G01 F80.00
G00 Z1.9990

M03 S800
G00 X6.7125 Y25.5125
G01 F80.00
G01 Z-2.4003
G01 F80.00
G01 X6.7125 Y5.0000 F80.00
G01 X6.7120 Y4.9574 F80.00
G01 X6.7079 Y4.8746 F80.00
G01 X6.6997 Y4.7910 F80.00
G01 X6.6874 Y4.7078 F80.00
G01 X6.6793 Y4.6642 F80.00
G01 X6.6708 Y4.6242 F80.00
G01 X6.6506 Y4.5438 F80.00
G01 X6.6259 Y4.4622 F80.00
G01 X6.5980 Y4.3843 F80.00
G01 X6.5899 Y4.3637 F80.00
G01 X6.5653 Y4.3055 F80.00
G01 X6.5294 Y4.2295 F80.00
G01 X6.4903 Y4.1564 F80.00
G01 X6.4471 Y4.0843 F80.00
G01 X6.4005 Y4.0144 F80.00
G01 X6.3701 Y3.9726 F80.00
G01 X6.3497 Y3.9459 F80.00
G01 X6.2963 Y3.8810 F80.00
G01 X6.2407 Y3.8196 F80.00
G01 X6.2109 Y3.7891 F80.00
G01 X1.2109 Y-1.2109 F80.00
G01 X1.1804 Y-1.2407 F80.00
G01 X1.1190 Y-1.2963 F80.00
G01 X1.0531 Y-1.3504 F80.00
G01 X0.9856 Y-1.4005 F80.00
G01 X0.9167 Y-1.4465 F80.00
G01 X0.8436 Y-1.4903 F80.00
G01 X0.7694 Y-1.5299 F80.00
G01 X0.6934 Y-1.5658 F80.00
G01 X0.6169 Y-1.5975 F80.00
G01 X0.5378 Y-1.6259 F80.00
G01 X0.4573 Y-1.6503 F80.00
G01 X0.3758 Y-1.6708 F80.00
G01 X0.3358 Y-1.6793 F80.00
G01 X0.2922 Y-1.6874 F80.00
G01 X0.2090 Y-1.6997 F80.00
G01 X0.1266 Y-1.7078 F80.00
G01 X0.0426 Y-1.7120 F80.00
G01 X0.0000 Y-1.7125 F80.00
G01 X-28.8125 Y-1.7125 F80.00
G00 Z1.9990
G00 X-35.9875 Y-1.7125
G01 F80.00
G01 Z-2.4003
G01 F80.00
G01 X-65.0000 Y-1.7125 F80.00
G00 Z1.9990
G00 X-65.0000 Y-1.7125
G01 F80.00
G01 Z-2.4003
G01 F80.00
G01 X-65.0426 Y-1.7120 F80.00
G01 X-65.1254 Y-1.7079 F80.00
G01 X-65.2090 Y-1.6997 F80.00
G01 X-65.2922 Y-1.6874 F80.00
G01 X-65.3358 Y-1.6793 F80.00
G01 X-65.3758 Y-1.6708 F80.00
G01 X-65.4573 Y-1.6503 F80.00
G01 X-65.5378 Y-1.6259 F80.00
G01 X-65.6157 Y-1.5980 F80.00
G01 X-65.6363 Y-1.5899 F80.00
G01 X-65.6945 Y-1.5653 F80.00
G01 X-65.7705 Y-1.5294 F80.00
G01 X-65.8446 Y-1.4897 F80.00
G01 X-65.9167 Y-1.4465 F80.00
G01 X-65.9856 Y-1.4005 F80.00
G01 X-66.0531 Y-1.3504 F80.00
G01 X-66.1181 Y-1.2971 F80.00
G01 X-66.1804 Y-1.2407 F80.00
G01 X-66.2109 Y-1.2109 F80.00
G01 X-71.2109 Y3.7891 F80.00
G01 X-71.2407 Y3.8196 F80.00
G01 X-71.2971 Y3.8819 F80.00
G01 X-71.3497 Y3.9459 F80.00
G01 X-71.3701 Y3.9726 F80.00
G01 X-71.4005 Y4.0144 F80.00
G01 X-71.4465 Y4.0833 F80.00
G01 X-71.4903 Y4.1564 F80.00
G01 X-71.5320 Y4.2347 F80.00
G01 X-71.5658 Y4.3066 F80.00
G01 X-71.5980 Y4.3843 F80.00
G01 X-71.6259 Y4.4622 F80.00
G01 X-71.6503 Y4.5427 F80.00
G01 X-71.6708 Y4.6242 F80.00
G01 X-71.6793 Y4.6642 F80.00
G01 X-71.6872 Y4.7066 F80.00
G01 X-71.6997 Y4.7910 F80.00
G01 X-71.7079 Y4.8746 F80.00
G01 X-71.7120 Y4.9574 F80.00
G01 X-71.7125 Y5.0000 F80.00
G01 X-71.7125 Y25.5125 F80.00
G00 Z1.9990
G00 X-71.7125 Y32.6875
G01 F80.00
G01 Z-2.4003
G01 F80.00
G01 X-71.7125 Y53.0000 F80.00
G01 X-71.7120 Y53.0426 F80.00
G01 X-71.7079 Y53.1254 F80.00
G01 X-71.6997 Y53.2090 F80.00
G01 X-71.6874 Y53.2922 F80.00
G01 X-71.6793 Y53.3358 F80.00
G01 X-71.6710 Y53.3746 F80.00
G01 X-71.6503 Y53.4573 F80.00
G01 X-71.6259 Y53.5378 F80.00
G01 X-71.5980 Y53.6157 F80.00
G01 X-71.5658 Y53.6934 F80.00
G01 X-71.5294 Y53.7705 F80.00
G01 X-71.4903 Y53.8436 F80.00
G01 X-71.4471 Y53.9157 F80.00
G01 X-71.4005 Y53.9856 F80.00
G01 X-71.3701 Y54.0274 F80.00
G01 X-71.3497 Y54.0541 F80.00
G01 X-71.2963 Y54.1190 F80.00
G01 X-71.2407 Y54.1804 F80.00
G01 X-71.2109 Y54.2109 F80.00
G01 X-66.2109 Y59.2109 F80.00
G01 X-66.1804 Y59.2407 F80.00
G01 X-66.1190 Y59.2963 F80.00
G01 X-66.0541 Y59.3497 F80.00
G01 X-66.0274 Y59.3701 F80.00
G01 X-65.9856 Y59.4005 F80.00
G01 X-65.9157 Y59.4471 F80.00
G01 X-65.8436 Y59.4903 F80.00
G01 X-65.7705 Y59.5294 F80.00
G01 X-65.6945 Y59.5653 F80.00
G01 X-65.6363 Y59.5899 F80.00
G01 X-65.6157 Y59.5980 F80.00
G01 X-65.5378 Y59.6259 F80.00
G01 X-65.4573 Y59.6503 F80.00
G01 X-65.3758 Y59.6708 F80.00
G01 X-65.3358 Y59.6793 F80.00
G01 X-65.2922 Y59.6874 F80.00
G01 X-65.2090 Y59.6997 F80.00
G01 X-65.1266 Y59.7078 F80.00
G01 X-65.0426 Y59.7120 F80.00
G01 X-65.0000 Y59.7125 F80.00
G01 X-35.9875 Y59.7125 F80.00
G00 Z1.9990
G00 X-28.8125 Y59.7125
G01 F80.00
G01 Z-2.4003
G01 F80.00
G01 X0.0000 Y59.7125 F80.00
G01 X0.0426 Y59.7120 F80.00
G01 X0.1266 Y59.7078 F80.00
G01 X0.2090 Y59.6997 F80.00
G01 X0.2922 Y59.6874 F80.00
G01 X0.3358 Y59.6793 F80.00
G01 X0.3758 Y59.6708 F80.00
G01 X0.4573 Y59.6503 F80.00
G01 X0.5378 Y59.6259 F80.00
G01 X0.6157 Y59.5980 F80.00
G01 X0.6363 Y59.5899 F80.00
G01 X0.6945 Y59.5653 F80.00
G01 X0.7705 Y59.5294 F80.00
G01 X0.8436 Y59.4903 F80.00
G01 X0.9157 Y59.4471 F80.00
G01 X0.9856 Y59.4005 F80.00
G01 X1.0274 Y59.3701 F80.00
G01 X1.0541 Y59.3497 F80.00
G01 X1.1190 Y59.2963 F80.00
G01 X1.1804 Y59.2407 F80.00
G01 X1.2109 Y59.2109 F80.00
G01 X6.2109 Y54.2109 F80.00
G01 X6.2407 Y54.1804 F80.00
G01 X6.2963 Y54.1190 F80.00
G01 X6.3497 Y54.0541 F80.00
G01 X6.3701 Y54.0274 F80.00
G01 X6.4005 Y53.9856 F80.00
G01 X6.4471 Y53.9157 F80.00
G01 X6.4903 Y53.8436 F80.00
G01 X6.5294 Y53.7705 F80.00
G01 X6.5658 Y53.6934 F80.00
G01 X6.5980 Y53.6157 F80.00
G01 X6.6259 Y53.5378 F80.00
G01 X6.6503 Y53.4573 F80.00
G01 X6.6710 Y53.3746 F80.00
G01 X6.6793 Y53.3358 F80.00
G01 X6.6874 Y53.2922 F80.00
G01 X6.6997 Y53.2090 F80.00
G01 X6.7079 Y53.1254 F80.00
G01 X6.7120 Y53.0426 F80.00
G01 X6.7125 Y53.0000 F80.00
G01 X6.7125 Y32.6875 F80.00
G00 Z1.9990
M05
G00 Z1.9990
G00 Z12.70
G00 X0.0 Y0.0

M02