(G-CODE GENERATED BY FLATCAM v8.96 - www.flatcam.org - Version Date: 2019/08/23)

(Name: small_drills)
(Type: G-code from Excellon)
(Units: MM)

(Created on Tuesday, 19 November 2019 at 13:45)

(Feedrate: 80.0 mm/min)
(Feedrate rapids 800.0009 mm/min)

(Z_Cut: -1.8 mm)
(Z_Move: 2.0 mm)
(Z Toolchange: 12.7 mm)
(X,Y Toolchange: 0.0000, 0.0000 mm)
(Z Start: None mm)
(Z End: 12.7 mm)
(Steps per circle: 128)
(Postprocessor Excellon: grbl_11)
(X range:  -65.6006 ...   -0.2159  mm)
(Y range:    3.4011 ...   53.5991  mm)

(Spindle Speed: 800.0 RPM)


G21
G90
G94
G17

G01 F80.00
G00 Z2.0000

M03 S800.0
G00 X-12.7584 Y27.1348
G01 Z-1.8000
G01 Z0
G00 Z2.0000
G00 X-14.2621 Y40.2158
G01 Z-1.8000
G01 Z0
G00 Z2.0000
G00 X-5.1181 Y41.7398
G01 Z-1.8000
G01 Z0
G00 Z2.0000
G00 X-2.3190 Y41.7398
G01 Z-1.8000
G01 Z0
G00 Z2.0000
G00 X-2.3241 Y27.6479
G01 Z-1.8000
G01 Z0
G00 Z2.0000
G00 X-2.3241 Y24.8488
G01 Z-1.8000
G01 Z0
G00 Z2.0000
G00 X-2.3241 Y15.2019
G01 Z-1.8000
G01 Z0
G00 Z2.0000
G00 X-2.3241 Y12.4028
G01 Z-1.8000
G01 Z0
G00 Z2.0000
G00 X-12.2301 Y12.4028
G01 Z-1.8000
G01 Z0
G00 Z2.0000
G00 X-22.3901 Y12.4028
G01 Z-1.8000
G01 Z0
G00 Z2.0000
G00 X-29.5453 Y12.4054
G01 Z-1.8000
G01 Z0
G00 Z2.0000
G00 X-29.5453 Y14.9454
G01 Z-1.8000
G01 Z0
G00 Z2.0000
G00 X-29.5453 Y17.4854
G01 Z-1.8000
G01 Z0
G00 Z2.0000
G00 X-29.5453 Y20.0254
G01 Z-1.8000
G01 Z0
G00 Z2.0000
G00 X-29.5453 Y22.5654
G01 Z-1.8000
G01 Z0
G00 Z2.0000
G00 X-54.9453 Y17.4854
G01 Z-1.8000
G01 Z0
G00 Z2.0000
G00 X-54.9453 Y14.9454
G01 Z-1.8000
G01 Z0
G00 Z2.0000
G00 X-54.9453 Y12.4054
G01 Z-1.8000
G01 Z0
G00 Z2.0000
G00 X-61.9989 Y12.4638
G01 Z-1.8000
G01 Z0
G00 Z2.0000
G00 X-61.9989 Y14.9428
G01 Z-1.8000
G01 Z0
G00 Z2.0000
G00 X-61.9989 Y17.4625
G01 Z-1.8000
G01 Z0
G00 Z2.0000
G00 X-54.9453 Y20.0254
G01 Z-1.8000
G01 Z0
G00 Z2.0000
G00 X-54.9453 Y22.5654
G01 Z-1.8000
G01 Z0
G00 Z2.0000
G00 X-54.9453 Y25.1054
G01 Z-1.8000
G01 Z0
G00 Z2.0000
G00 X-54.9453 Y27.6454
G01 Z-1.8000
G01 Z0
G00 Z2.0000
G00 X-54.9453 Y30.1854
G01 Z-1.8000
G01 Z0
G00 Z2.0000
G00 X-54.9453 Y32.7254
G01 Z-1.8000
G01 Z0
G00 Z2.0000
G00 X-54.9453 Y35.2654
G01 Z-1.8000
G01 Z0
G00 Z2.0000
G00 X-54.9453 Y37.8054
G01 Z-1.8000
G01 Z0
G00 Z2.0000
G00 X-54.9453 Y40.3454
G01 Z-1.8000
G01 Z0
G00 Z2.0000
G00 X-54.9453 Y42.8854
G01 Z-1.8000
G01 Z0
G00 Z2.0000
G00 X-54.9453 Y45.4254
G01 Z-1.8000
G01 Z0
G00 Z2.0000
G00 X-54.9453 Y47.9654
G01 Z-1.8000
G01 Z0
G00 Z2.0000
G00 X-29.5453 Y47.9654
G01 Z-1.8000
G01 Z0
G00 Z2.0000
G00 X-29.5453 Y45.4254
G01 Z-1.8000
G01 Z0
G00 Z2.0000
G00 X-29.5453 Y42.8854
G01 Z-1.8000
G01 Z0
G00 Z2.0000
G00 X-24.4221 Y40.2158
G01 Z-1.8000
G01 Z0
G00 Z2.0000
G00 X-29.5453 Y40.3454
G01 Z-1.8000
G01 Z0
G00 Z2.0000
G00 X-29.5453 Y37.8054
G01 Z-1.8000
G01 Z0
G00 Z2.0000
G00 X-29.5453 Y35.2654
G01 Z-1.8000
G01 Z0
G00 Z2.0000
G00 X-29.5453 Y32.7254
G01 Z-1.8000
G01 Z0
G00 Z2.0000
G00 X-29.5453 Y30.1854
G01 Z-1.8000
G01 Z0
G00 Z2.0000
G00 X-29.5453 Y27.6454
G01 Z-1.8000
G01 Z0
G00 Z2.0000
G00 X-29.5453 Y25.1054
G01 Z-1.8000
G01 Z0
G00 Z2.0000
G00 X-17.7571 Y27.1348
G01 Z-1.8000
G01 Z0
G00 Z2.0000
G00 X-15.2781 Y27.1348
G01 Z-1.8000
G01 Z0
G00 Z2.0000
M05
G00 Z12.70
G00 X0.0 Y0.0

M02